( Made using CamBam - http://www.cambam.co.uk )
( Mammoth-4mm 24-Feb-19 4:10:43 AM )
( T14 : 2.0 )
G21 G90 G64 G40
G0 Z5.0
( T14 : 2.0 )
T14 M6
( ctrlHoles )
G17
M3 S12000
G0 X2.1 Y3.5
G0 Z1.0
G1 F800.0 Z-0.5
G2 F1200.0 X1.95 Y3.4134 I-0.1 J0.0
G2 Y3.5866 I0.05 J0.0866
G2 X2.1 Y3.5 I0.05 J-0.0866
G1 F800.0 X2.5
G2 F1200.0 X1.75 Y3.067 I-0.5 J0.0
G2 Y3.933 I0.25 J0.433
G2 X2.5 Y3.5 I0.25 J-0.433
G1 F800.0 X2.1
G1 Z-1.0
G2 F1200.0 X1.95 Y3.4134 I-0.1 J0.0
G2 Y3.5866 I0.05 J0.0866
G2 X2.1 Y3.5 I0.05 J-0.0866
G1 F800.0 X2.5
G2 F1200.0 X1.75 Y3.067 I-0.5 J0.0
G2 Y3.933 I0.25 J0.433
G2 X2.5 Y3.5 I0.25 J-0.433
G0 Z5.0
G0 X362.9466 Y574.4154
G0 Z1.0
G1 F800.0 Z-0.5
G2 F1200.0 X362.95 Y574.5866 I0.0534 J0.0846
G2 X363.1 Y574.5 I0.05 J-0.0866
G2 X362.95 Y574.4134 I-0.1 J0.0
G2 X362.9466 Y574.4154 I0.05 J0.0866
G1 F800.0 X362.7331 Y574.0772
G2 F1200.0 X362.75 Y574.933 I0.2669 J0.4228
G2 X363.5 Y574.5 I0.25 J-0.433
G2 X362.75 Y574.067 I-0.5 J0.0
G2 X362.7331 Y574.0772 I0.25 J0.433
G1 F800.0 X362.9466 Y574.4154
G1 Z-1.0
G2 F1200.0 X362.95 Y574.5866 I0.0534 J0.0846
G2 X363.1 Y574.5 I0.05 J-0.0866
G2 X362.95 Y574.4134 I-0.1 J0.0
G2 X362.9466 Y574.4154 I0.05 J0.0866
G1 F800.0 X362.7331 Y574.0772
G2 F1200.0 X362.75 Y574.933 I0.2669 J0.4228
G2 X363.5 Y574.5 I0.25 J-0.433
G2 X362.75 Y574.067 I-0.5 J0.0
G2 X362.7331 Y574.0772 I0.25 J0.433
( inholes )
S12000
G0 Z5.0
G0 X36.4735 Y134.8695
G0 Z1.0
G1 F800.0 Z-0.5
G2 F1200.0 X35.8834 Y136.2129 I7.1941 J3.9614
G3 X36.7927 Y136.4557 I-3.4716 J14.829
G3 X36.4735 Y134.8695 I15.6999 J-3.984
G1 F800.0 X35.7727 Y134.4836
G2 F1200.0 X34.8895 Y136.7881 I7.8949 J4.3473
G2 X35.0481 Y136.8566 I0.2163 J-0.2829
G3 X35.2069 Y136.8853 I-0.8098 J4.934
G3 X38.028 Y137.7498 I-2.7951 J14.1567
G3 X37.1107 Y133.1655 I14.4646 J-5.2781
G3 X37.1378 Y132.3741 I4.9949 J-0.2253
G1 X37.7978 Y126.5815
G2 X37.3626 Y126.1911 I-0.5666 J0.1939
G3 X37.2279 Y126.1589 I1.0968 J-4.8782
G2 X36.525 Y126.4587 I-0.1551 J0.6103
G2 X36.4016 Y127.033 I0.9054 J0.4948
G1 X36.853 Y130.6089
G3 X36.094 Y133.9454 I-4.9606 J0.6261
G2 X35.7727 Y134.4836 I7.5736 J4.8855
G1 F800.0 X35.072 Y134.0977
G2 F1200.0 X34.0651 Y136.8109 I8.5956 J4.7332
G2 X34.2469 Y137.279 I0.9511 J-0.1
G2 X34.9186 Y137.646 I0.8589 J-0.7738
G3 X35.0519 Y137.6701 I-0.6802 J4.1446
G3 X39.7181 Y139.5357 I-2.6402 J13.3718
G3 X37.9099 Y133.1295 I12.7745 J-7.0641
G3 X37.9326 Y132.4647 I4.1957 J-0.1893
G1 X38.6087 Y126.5317
G2 X37.5381 Y125.4106 I-1.3775 J0.2437
G3 X37.425 Y125.3835 I0.9213 J-4.0977
G2 X35.8257 Y126.07 I-0.3521 J1.3857
G2 X35.6059 Y127.1167 I1.6046 J0.8835
G1 X36.0593 Y130.7091
G3 X35.4217 Y133.5117 I-4.1669 J0.5259
G2 X35.072 Y134.0977 I8.2459 J5.3192
G1 F800.0 X34.3712 Y133.7118
G2 F1200.0 X33.2604 Y136.7529 I9.2964 J5.119
G2 X33.6272 Y137.7859 I1.7559 J-0.042
G2 X34.789 Y138.4355 I1.4786 J-1.2807
G3 X34.897 Y138.455 I-0.5506 J3.3551
G3 X42.1282 Y142.6635 I-2.4852 J12.587
G2 X42.2789 Y142.6081 I-0.0094 J-0.2584
G2 X41.7964 Y140.9086 I-1.3122 J-0.5457
G3 X40.9327 Y140.0043 I1.9849 J-2.7605
G3 X38.7091 Y133.0934 I11.5599 J-7.5326
G3 X38.7275 Y132.5553 I3.3965 J-0.1532
G1 X39.4152 Y126.52
G2 X37.7136 Y124.6301 I-2.184 J0.2554
G3 X37.622 Y124.6082 I0.7458 J-3.3172
G2 X35.1264 Y125.6816 I-0.5492 J2.161
G2 X34.8105 Y127.2037 I2.304 J1.272
G1 X35.2656 Y130.8092
G3 X34.7495 Y133.078 I-3.3732 J0.4258
G2 X34.3712 Y133.7118 I8.9181 J5.7528
G1 F800.0 X33.6704 Y133.3259
G2 F1200.0 X32.4601 Y136.6767 I9.9972 J5.5049
G2 X33.0083 Y138.293 I2.5561 J0.0342
G2 X34.6595 Y139.2249 I2.0975 J-1.7878
G3 X34.742 Y139.2398 I-0.4211 J2.5657
G3 X41.6745 Y143.3659 I-2.3302 J11.8021
G2 X42.9527 Y143.0572 I0.4443 J-0.9609
G2 X42.2634 Y140.259 I-1.9859 J-0.9948
G3 X41.6029 Y139.5675 I1.5179 J-2.1109
G3 X39.5083 Y133.0574 I10.8897 J-7.0959
G3 X39.5223 Y132.6458 I2.5974 J-0.1172
G1 X40.2197 Y126.526
G2 X37.889 Y123.8496 I-2.9885 J0.2494
G3 X37.819 Y123.8328 I0.5703 J-2.5367
G2 X34.427 Y125.2931 I-0.7462 J2.9364
G2 X34.0154 Y127.2927 I3.0033 J1.6604
G1 X34.4719 Y130.9094
G3 X34.0772 Y132.6444 I-2.5795 J0.3256
G2 X33.6704 Y133.3259 I9.5904 J6.1865
G1 F800.0 X32.9696 Y132.9401
G2 F1200.0 X31.662 Y136.5916 I10.698 J5.8908
G2 X32.3895 Y138.8003 I3.3542 J0.1193
G2 X34.5299 Y140.0144 I2.7163 J-2.2951
G3 X34.5871 Y140.0247 I-0.2915 J1.7762
G3 X41.1547 Y143.9941 I-2.1753 J11.0173
G2 X43.6336 Y143.4819 I0.9641 J-1.589
G2 X42.7305 Y139.6095 I-2.6669 J-1.4195
G3 X42.2732 Y139.1308 I1.0508 J-1.4614
G3 X40.3075 Y133.0213 I10.2194 J-6.6591
G3 X40.3172 Y132.7364 I1.7982 J-0.0811
G1 X41.023 Y126.5428
G2 X38.0645 Y123.069 I-3.7917 J0.2326
G3 X38.0161 Y123.0574 I0.3948 J-1.7562
G2 X33.7276 Y124.9047 I-0.9432 J3.7117
G2 X33.2204 Y127.3828 I3.7027 J2.0488
G1 X33.6782 Y131.0096
G3 X33.4049 Y132.2107 I-1.7858 J0.2254
G2 X32.9696 Y132.9401 I10.2627 J6.6201
G1 F800.0 X32.2688 Y132.5542
G2 F1200.0 X30.8652 Y136.5014 I11.3988 J6.2767
G2 X31.7708 Y139.3076 I4.1511 J0.2095
G2 X34.4003 Y140.8038 I3.335 J-2.8023
G3 X34.4321 Y140.8095 I-0.162 J0.9868
G3 X40.6097 Y144.5938 I-2.0203 J10.2324
G2 X44.316 Y143.9018 I1.5091 J-2.1888
G2 X43.1975 Y138.96 I-3.3493 J-1.8394
G3 X42.9435 Y138.694 I0.5838 J-0.8119
G3 X41.1066 Y132.9853 I9.5491 J-6.2224
G3 X41.1121 Y132.827 I0.999 J-0.0451
G1 X41.8254 Y126.5671
G2 X38.24 Y122.2885 I-4.5941 J0.2082
G3 X38.2131 Y122.2821 I0.2194 J-0.9756
G2 X33.0282 Y124.5163 I-1.1402 J4.4871
G2 X32.4256 Y127.4739 I4.4021 J2.4372
G1 X32.8845 Y131.1098
G3 X32.7327 Y131.7771 I-0.9921 J0.1252
G2 X32.2688 Y132.5542 I10.9349 J7.0538
G0 Z5.0
G0 X36.4735 Y134.8695
G0 Z0.5
G1 F800.0 Z-1.0
G2 F1200.0 X35.8834 Y136.2129 I7.1941 J3.9614
G3 X36.7927 Y136.4557 I-3.4716 J14.829
G3 X36.4735 Y134.8695 I15.6999 J-3.984
G1 F800.0 X35.7727 Y134.4836
G2 F1200.0 X34.8895 Y136.7881 I7.8949 J4.3473
G2 X35.0481 Y136.8566 I0.2163 J-0.2829
G3 X35.2069 Y136.8853 I-0.8098 J4.934
G3 X38.028 Y137.7498 I-2.7951 J14.1567
G3 X37.1107 Y133.1655 I14.4646 J-5.2781
G3 X37.1378 Y132.3741 I4.9949 J-0.2253
G1 X37.7978 Y126.5815
G2 X37.3626 Y126.1911 I-0.5666 J0.1939
G3 X37.2279 Y126.1589 I1.0968 J-4.8782
G2 X36.525 Y126.4587 I-0.1551 J0.6103
G2 X36.4016 Y127.033 I0.9054 J0.4948
G1 X36.853 Y130.6089
G3 X36.094 Y133.9454 I-4.9606 J0.6261
G2 X35.7727 Y134.4836 I7.5736 J4.8855
G1 F800.0 X35.072 Y134.0977
G2 F1200.0 X34.0651 Y136.8109 I8.5956 J4.7332
G2 X34.2469 Y137.279 I0.9511 J-0.1
G2 X34.9186 Y137.646 I0.8589 J-0.7738
G3 X35.0519 Y137.6701 I-0.6802 J4.1446
G3 X39.7181 Y139.5357 I-2.6402 J13.3718
G3 X37.9099 Y133.1295 I12.7745 J-7.0641
G3 X37.9326 Y132.4647 I4.1957 J-0.1893
G1 X38.6087 Y126.5317
G2 X37.5381 Y125.4106 I-1.3775 J0.2437
G3 X37.425 Y125.3835 I0.9213 J-4.0977
G2 X35.8257 Y126.07 I-0.3521 J1.3857
G2 X35.6059 Y127.1167 I1.6046 J0.8835
G1 X36.0593 Y130.7091
G3 X35.4217 Y133.5117 I-4.1669 J0.5259
G2 X35.072 Y134.0977 I8.2459 J5.3192
G1 F800.0 X34.3712 Y133.7118
G2 F1200.0 X33.2604 Y136.7529 I9.2964 J5.119
G2 X33.6272 Y137.7859 I1.7559 J-0.042
G2 X34.789 Y138.4355 I1.4786 J-1.2807
G3 X34.897 Y138.455 I-0.5506 J3.3551
G3 X42.1282 Y142.6635 I-2.4852 J12.587
G2 X42.2789 Y142.6081 I-0.0094 J-0.2584
G2 X41.7964 Y140.9086 I-1.3122 J-0.5457
G3 X40.9327 Y140.0043 I1.9849 J-2.7605
G3 X38.7091 Y133.0934 I11.5599 J-7.5326
G3 X38.7275 Y132.5553 I3.3965 J-0.1532
G1 X39.4152 Y126.52
G2 X37.7136 Y124.6301 I-2.184 J0.2554
G3 X37.622 Y124.6082 I0.7458 J-3.3172
G2 X35.1264 Y125.6816 I-0.5492 J2.161
G2 X34.8105 Y127.2037 I2.304 J1.272
G1 X35.2656 Y130.8092
G3 X34.7495 Y133.078 I-3.3732 J0.4258
G2 X34.3712 Y133.7118 I8.9181 J5.7528
G1 F800.0 X33.6704 Y133.3259
G2 F1200.0 X32.4601 Y136.6767 I9.9972 J5.5049
G2 X33.0083 Y138.293 I2.5561 J0.0342
G2 X34.6595 Y139.2249 I2.0975 J-1.7878
G3 X34.742 Y139.2398 I-0.4211 J2.5657
G3 X41.6745 Y143.3659 I-2.3302 J11.8021
G2 X42.9527 Y143.0572 I0.4443 J-0.9609
G2 X42.2634 Y140.259 I-1.9859 J-0.9948
G3 X41.6029 Y139.5675 I1.5179 J-2.1109
G3 X39.5083 Y133.0574 I10.8897 J-7.0959
G3 X39.5223 Y132.6458 I2.5974 J-0.1172
G1 X40.2197 Y126.526
G2 X37.889 Y123.8496 I-2.9885 J0.2494
G3 X37.819 Y123.8328 I0.5703 J-2.5367
G2 X34.427 Y125.2931 I-0.7462 J2.9364
G2 X34.0154 Y127.2927 I3.0033 J1.6604
G1 X34.4719 Y130.9094
G3 X34.0772 Y132.6444 I-2.5795 J0.3256
G2 X33.6704 Y133.3259 I9.5904 J6.1865
G1 F800.0 X32.9696 Y132.9401
G2 F1200.0 X31.662 Y136.5916 I10.698 J5.8908
G2 X32.3895 Y138.8003 I3.3542 J0.1193
G2 X34.5299 Y140.0144 I2.7163 J-2.2951
G3 X34.5871 Y140.0247 I-0.2915 J1.7762
G3 X41.1547 Y143.9941 I-2.1753 J11.0173
G2 X43.6336 Y143.4819 I0.9641 J-1.589
G2 X42.7305 Y139.6095 I-2.6669 J-1.4195
G3 X42.2732 Y139.1308 I1.0508 J-1.4614
G3 X40.3075 Y133.0213 I10.2194 J-6.6591
G3 X40.3172 Y132.7364 I1.7982 J-0.0811
G1 X41.023 Y126.5428
G2 X38.0645 Y123.069 I-3.7917 J0.2326
G3 X38.0161 Y123.0574 I0.3948 J-1.7562
G2 X33.7276 Y124.9047 I-0.9432 J3.7117
G2 X33.2204 Y127.3828 I3.7027 J2.0488
G1 X33.6782 Y131.0096
G3 X33.4049 Y132.2107 I-1.7858 J0.2254
G2 X32.9696 Y132.9401 I10.2627 J6.6201
G1 F800.0 X32.2688 Y132.5542
G2 F1200.0 X30.8652 Y136.5014 I11.3988 J6.2767
G2 X31.7708 Y139.3076 I4.1511 J0.2095
G2 X34.4003 Y140.8038 I3.335 J-2.8023
G3 X34.4321 Y140.8095 I-0.162 J0.9868
G3 X40.6097 Y144.5938 I-2.0203 J10.2324
G2 X44.316 Y143.9018 I1.5091 J-2.1888
G2 X43.1975 Y138.96 I-3.3493 J-1.8394
G3 X42.9435 Y138.694 I0.5838 J-0.8119
G3 X41.1066 Y132.9853 I9.5491 J-6.2224
G3 X41.1121 Y132.827 I0.999 J-0.0451
G1 X41.8254 Y126.5671
G2 X38.24 Y122.2885 I-4.5941 J0.2082
G3 X38.2131 Y122.2821 I0.2194 J-0.9756
G2 X33.0282 Y124.5163 I-1.1402 J4.4871
G2 X32.4256 Y127.4739 I4.4021 J2.4372
G1 X32.8845 Y131.1098
G3 X32.7327 Y131.7771 I-0.9921 J0.1252
G2 X32.2688 Y132.5542 I10.9349 J7.0538
G0 Z5.0
G0 X36.4735 Y134.8695
G0 Z0.0
G1 F800.0 Z-1.5
G2 F1200.0 X35.8834 Y136.2129 I7.1941 J3.9614
G3 X36.7927 Y136.4557 I-3.4716 J14.829
G3 X36.4735 Y134.8695 I15.6999 J-3.984
G1 F800.0 X35.7727 Y134.4836
G2 F1200.0 X34.8895 Y136.7881 I7.8949 J4.3473
G2 X35.0481 Y136.8566 I0.2163 J-0.2829
G3 X35.2069 Y136.8853 I-0.8098 J4.934
G3 X38.028 Y137.7498 I-2.7951 J14.1567
G3 X37.1107 Y133.1655 I14.4646 J-5.2781
G3 X37.1378 Y132.3741 I4.9949 J-0.2253
G1 X37.7978 Y126.5815
G2 X37.3626 Y126.1911 I-0.5666 J0.1939
G3 X37.2279 Y126.1589 I1.0968 J-4.8782
G2 X36.525 Y126.4587 I-0.1551 J0.6103
G2 X36.4016 Y127.033 I0.9054 J0.4948
G1 X36.853 Y130.6089
G3 X36.094 Y133.9454 I-4.9606 J0.6261
G2 X35.7727 Y134.4836 I7.5736 J4.8855
G1 F800.0 X35.072 Y134.0977
G2 F1200.0 X34.0651 Y136.8109 I8.5956 J4.7332
G2 X34.2469 Y137.279 I0.9511 J-0.1
G2 X34.9186 Y137.646 I0.8589 J-0.7738
G3 X35.0519 Y137.6701 I-0.6802 J4.1446
G3 X39.7181 Y139.5357 I-2.6402 J13.3718
G3 X37.9099 Y133.1295 I12.7745 J-7.0641
G3 X37.9326 Y132.4647 I4.1957 J-0.1893
G1 X38.6087 Y126.5317
G2 X37.5381 Y125.4106 I-1.3775 J0.2437
G3 X37.425 Y125.3835 I0.9213 J-4.0977
G2 X35.8257 Y126.07 I-0.3521 J1.3857
G2 X35.6059 Y127.1167 I1.6046 J0.8835
G1 X36.0593 Y130.7091
G3 X35.4217 Y133.5117 I-4.1669 J0.5259
G2 X35.072 Y134.0977 I8.2459 J5.3192
G1 F800.0 X34.3712 Y133.7118
G2 F1200.0 X33.2604 Y136.7529 I9.2964 J5.119
G2 X33.6272 Y137.7859 I1.7559 J-0.042
G2 X34.789 Y138.4355 I1.4786 J-1.2807
G3 X34.897 Y138.455 I-0.5506 J3.3551
G3 X42.1282 Y142.6635 I-2.4852 J12.587
G2 X42.2789 Y142.6081 I-0.0094 J-0.2584
G2 X41.7964 Y140.9086 I-1.3122 J-0.5457
G3 X40.9327 Y140.0043 I1.9849 J-2.7605
G3 X38.7091 Y133.0934 I11.5599 J-7.5326
G3 X38.7275 Y132.5553 I3.3965 J-0.1532
G1 X39.4152 Y126.52
G2 X37.7136 Y124.6301 I-2.184 J0.2554
G3 X37.622 Y124.6082 I0.7458 J-3.3172
G2 X35.1264 Y125.6816 I-0.5492 J2.161
G2 X34.8105 Y127.2037 I2.304 J1.272
G1 X35.2656 Y130.8092
G3 X34.7495 Y133.078 I-3.3732 J0.4258
G2 X34.3712 Y133.7118 I8.9181 J5.7528
G1 F800.0 X33.6704 Y133.3259
G2 F1200.0 X32.4601 Y136.6767 I9.9972 J5.5049
G2 X33.0083 Y138.293 I2.5561 J0.0342
G2 X34.6595 Y139.2249 I2.0975 J-1.7878
G3 X34.742 Y139.2398 I-0.4211 J2.5657
G3 X41.6745 Y143.3659 I-2.3302 J11.8021
G2 X42.9527 Y143.0572 I0.4443 J-0.9609
G2 X42.2634 Y140.259 I-1.9859 J-0.9948
G3 X41.6029 Y139.5675 I1.5179 J-2.1109
G3 X39.5083 Y133.0574 I10.8897 J-7.0959
G3 X39.5223 Y132.6458 I2.5974 J-0.1172
G1 X40.2197 Y126.526
G2 X37.889 Y123.8496 I-2.9885 J0.2494
G3 X37.819 Y123.8328 I0.5703 J-2.5367
G2 X34.427 Y125.2931 I-0.7462 J2.9364
G2 X34.0154 Y127.2927 I3.0033 J1.6604
G1 X34.4719 Y130.9094
G3 X34.0772 Y132.6444 I-2.5795 J0.3256
G2 X33.6704 Y133.3259 I9.5904 J6.1865
G1 F800.0 X32.9696 Y132.9401
G2 F1200.0 X31.662 Y136.5916 I10.698 J5.8908
G2 X32.3895 Y138.8003 I3.3542 J0.1193
G2 X34.5299 Y140.0144 I2.7163 J-2.2951
G3 X34.5871 Y140.0247 I-0.2915 J1.7762
G3 X41.1547 Y143.9941 I-2.1753 J11.0173
G2 X43.6336 Y143.4819 I0.9641 J-1.589
G2 X42.7305 Y139.6095 I-2.6669 J-1.4195
G3 X42.2732 Y139.1308 I1.0508 J-1.4614
G3 X40.3075 Y133.0213 I10.2194 J-6.6591
G3 X40.3172 Y132.7364 I1.7982 J-0.0811
G1 X41.023 Y126.5428
G2 X38.0645 Y123.069 I-3.7917 J0.2326
G3 X38.0161 Y123.0574 I0.3948 J-1.7562
G2 X33.7276 Y124.9047 I-0.9432 J3.7117
G2 X33.2204 Y127.3828 I3.7027 J2.0488
G1 X33.6782 Y131.0096
G3 X33.4049 Y132.2107 I-1.7858 J0.2254
G2 X32.9696 Y132.9401 I10.2627 J6.6201
G1 F800.0 X32.2688 Y132.5542
G2 F1200.0 X30.8652 Y136.5014 I11.3988 J6.2767
G2 X31.7708 Y139.3076 I4.1511 J0.2095
G2 X34.4003 Y140.8038 I3.335 J-2.8023
G3 X34.4321 Y140.8095 I-0.162 J0.9868
G3 X40.6097 Y144.5938 I-2.0203 J10.2324
G2 X44.316 Y143.9018 I1.5091 J-2.1888
G2 X43.1975 Y138.96 I-3.3493 J-1.8394
G3 X42.9435 Y138.694 I0.5838 J-0.8119
G3 X41.1066 Y132.9853 I9.5491 J-6.2224
G3 X41.1121 Y132.827 I0.999 J-0.0451
G1 X41.8254 Y126.5671
G2 X38.24 Y122.2885 I-4.5941 J0.2082
G3 X38.2131 Y122.2821 I0.2194 J-0.9756
G2 X33.0282 Y124.5163 I-1.1402 J4.4871
G2 X32.4256 Y127.4739 I4.4021 J2.4372
G1 X32.8845 Y131.1098
G3 X32.7327 Y131.7771 I-0.9921 J0.1252
G2 X32.2688 Y132.5542 I10.9349 J7.0538
G0 Z5.0
G0 X36.4735 Y134.8695
G0 Z-0.5
G1 F800.0 Z-2.0
G2 F1200.0 X35.8834 Y136.2129 I7.1941 J3.9614
G3 X36.7927 Y136.4557 I-3.4716 J14.829
G3 X36.4735 Y134.8695 I15.6999 J-3.984
G1 F800.0 X35.7727 Y134.4836
G2 F1200.0 X34.8895 Y136.7881 I7.8949 J4.3473
G2 X35.0481 Y136.8566 I0.2163 J-0.2829
G3 X35.2069 Y136.8853 I-0.8098 J4.934
G3 X38.028 Y137.7498 I-2.7951 J14.1567
G3 X37.1107 Y133.1655 I14.4646 J-5.2781
G3 X37.1378 Y132.3741 I4.9949 J-0.2253
G1 X37.7978 Y126.5815
G2 X37.3626 Y126.1911 I-0.5666 J0.1939
G3 X37.2279 Y126.1589 I1.0968 J-4.8782
G2 X36.525 Y126.4587 I-0.1551 J0.6103
G2 X36.4016 Y127.033 I0.9054 J0.4948
G1 X36.853 Y130.6089
G3 X36.094 Y133.9454 I-4.9606 J0.6261
G2 X35.7727 Y134.4836 I7.5736 J4.8855
G1 F800.0 X35.072 Y134.0977
G2 F1200.0 X34.0651 Y136.8109 I8.5956 J4.7332
G2 X34.2469 Y137.279 I0.9511 J-0.1
G2 X34.9186 Y137.646 I0.8589 J-0.7738
G3 X35.0519 Y137.6701 I-0.6802 J4.1446
G3 X39.7181 Y139.5357 I-2.6402 J13.3718
G3 X37.9099 Y133.1295 I12.7745 J-7.0641
G3 X37.9326 Y132.4647 I4.1957 J-0.1893
G1 X38.6087 Y126.5317
G2 X37.5381 Y125.4106 I-1.3775 J0.2437
G3 X37.425 Y125.3835 I0.9213 J-4.0977
G2 X35.8257 Y126.07 I-0.3521 J1.3857
G2 X35.6059 Y127.1167 I1.6046 J0.8835
G1 X36.0593 Y130.7091
G3 X35.4217 Y133.5117 I-4.1669 J0.5259
G2 X35.072 Y134.0977 I8.2459 J5.3192
G1 F800.0 X34.3712 Y133.7118
G2 F1200.0 X33.2604 Y136.7529 I9.2964 J5.119
G2 X33.6272 Y137.7859 I1.7559 J-0.042
G2 X34.789 Y138.4355 I1.4786 J-1.2807
G3 X34.897 Y138.455 I-0.5506 J3.3551
G3 X42.1282 Y142.6635 I-2.4852 J12.587
G2 X42.2789 Y142.6081 I-0.0094 J-0.2584
G2 X41.7964 Y140.9086 I-1.3122 J-0.5457
G3 X40.9327 Y140.0043 I1.9849 J-2.7605
G3 X38.7091 Y133.0934 I11.5599 J-7.5326
G3 X38.7275 Y132.5553 I3.3965 J-0.1532
G1 X39.4152 Y126.52
G2 X37.7136 Y124.6301 I-2.184 J0.2554
G3 X37.622 Y124.6082 I0.7458 J-3.3172
G2 X35.1264 Y125.6816 I-0.5492 J2.161
G2 X34.8105 Y127.2037 I2.304 J1.272
G1 X35.2656 Y130.8092
G3 X34.7495 Y133.078 I-3.3732 J0.4258
G2 X34.3712 Y133.7118 I8.9181 J5.7528
G1 F800.0 X33.6704 Y133.3259
G2 F1200.0 X32.4601 Y136.6767 I9.9972 J5.5049
G2 X33.0083 Y138.293 I2.5561 J0.0342
G2 X34.6595 Y139.2249 I2.0975 J-1.7878
G3 X34.742 Y139.2398 I-0.4211 J2.5657
G3 X41.6745 Y143.3659 I-2.3302 J11.8021
G2 X42.9527 Y143.0572 I0.4443 J-0.9609
G2 X42.2634 Y140.259 I-1.9859 J-0.9948
G3 X41.6029 Y139.5675 I1.5179 J-2.1109
G3 X39.5083 Y133.0574 I10.8897 J-7.0959
G3 X39.5223 Y132.6458 I2.5974 J-0.1172
G1 X40.2197 Y126.526
G2 X37.889 Y123.8496 I-2.9885 J0.2494
G3 X37.819 Y123.8328 I0.5703 J-2.5367
G2 X34.427 Y125.2931 I-0.7462 J2.9364
G2 X34.0154 Y127.2927 I3.0033 J1.6604
G1 X34.4719 Y130.9094
G3 X34.0772 Y132.6444 I-2.5795 J0.3256
G2 X33.6704 Y133.3259 I9.5904 J6.1865
G1 F800.0 X32.9696 Y132.9401
G2 F1200.0 X31.662 Y136.5916 I10.698 J5.8908
G2 X32.3895 Y138.8003 I3.3542 J0.1193
G2 X34.5299 Y140.0144 I2.7163 J-2.2951
G3 X34.5871 Y140.0247 I-0.2915 J1.7762
G3 X41.1547 Y143.9941 I-2.1753 J11.0173
G2 X43.6336 Y143.4819 I0.9641 J-1.589
G2 X42.7305 Y139.6095 I-2.6669 J-1.4195
G3 X42.2732 Y139.1308 I1.0508 J-1.4614
G3 X40.3075 Y133.0213 I10.2194 J-6.6591
G3 X40.3172 Y132.7364 I1.7982 J-0.0811
G1 X41.023 Y126.5428
G2 X38.0645 Y123.069 I-3.7917 J0.2326
G3 X38.0161 Y123.0574 I0.3948 J-1.7562
G2 X33.7276 Y124.9047 I-0.9432 J3.7117
G2 X33.2204 Y127.3828 I3.7027 J2.0488
G1 X33.6782 Y131.0096
G3 X33.4049 Y132.2107 I-1.7858 J0.2254
G2 X32.9696 Y132.9401 I10.2627 J6.6201
G1 F800.0 X32.2688 Y132.5542
G2 F1200.0 X30.8652 Y136.5014 I11.3988 J6.2767
G2 X31.7708 Y139.3076 I4.1511 J0.2095
G2 X34.4003 Y140.8038 I3.335 J-2.8023
G3 X34.4321 Y140.8095 I-0.162 J0.9868
G3 X40.6097 Y144.5938 I-2.0203 J10.2324
G2 X44.316 Y143.9018 I1.5091 J-2.1888
G2 X43.1975 Y138.96 I-3.3493 J-1.8394
G3 X42.9435 Y138.694 I0.5838 J-0.8119
G3 X41.1066 Y132.9853 I9.5491 J-6.2224
G3 X41.1121 Y132.827 I0.999 J-0.0451
G1 X41.8254 Y126.5671
G2 X38.24 Y122.2885 I-4.5941 J0.2082
G3 X38.2131 Y122.2821 I0.2194 J-0.9756
G2 X33.0282 Y124.5163 I-1.1402 J4.4871
G2 X32.4256 Y127.4739 I4.4021 J2.4372
G1 X32.8845 Y131.1098
G3 X32.7327 Y131.7771 I-0.9921 J0.1252
G2 X32.2688 Y132.5542 I10.9349 J7.0538
G0 Z5.0
G0 X36.4735 Y134.8695
G0 Z-1.0
G1 F800.0 Z-2.5
G2 F1200.0 X35.8834 Y136.2129 I7.1941 J3.9614
G3 X36.7927 Y136.4557 I-3.4716 J14.829
G3 X36.4735 Y134.8695 I15.6999 J-3.984
G1 F800.0 X35.7727 Y134.4836
G2 F1200.0 X34.8895 Y136.7881 I7.8949 J4.3473
G2 X35.0481 Y136.8566 I0.2163 J-0.2829
G3 X35.2069 Y136.8853 I-0.8098 J4.934
G3 X38.028 Y137.7498 I-2.7951 J14.1567
G3 X37.1107 Y133.1655 I14.4646 J-5.2781
G3 X37.1378 Y132.3741 I4.9949 J-0.2253
G1 X37.7978 Y126.5815
G2 X37.3626 Y126.1911 I-0.5666 J0.1939
G3 X37.2279 Y126.1589 I1.0968 J-4.8782
G2 X36.525 Y126.4587 I-0.1551 J0.6103
G2 X36.4016 Y127.033 I0.9054 J0.4948
G1 X36.853 Y130.6089
G3 X36.094 Y133.9454 I-4.9606 J0.6261
G2 X35.7727 Y134.4836 I7.5736 J4.8855
G1 F800.0 X35.072 Y134.0977
G2 F1200.0 X34.0651 Y136.8109 I8.5956 J4.7332
G2 X34.2469 Y137.279 I0.9511 J-0.1
G2 X34.9186 Y137.646 I0.8589 J-0.7738
G3 X35.0519 Y137.6701 I-0.6802 J4.1446
G3 X39.7181 Y139.5357 I-2.6402 J13.3718
G3 X37.9099 Y133.1295 I12.7745 J-7.0641
G3 X37.9326 Y132.4647 I4.1957 J-0.1893
G1 X38.6087 Y126.5317
G2 X37.5381 Y125.4106 I-1.3775 J0.2437
G3 X37.425 Y125.3835 I0.9213 J-4.0977
G2 X35.8257 Y126.07 I-0.3521 J1.3857
G2 X35.6059 Y127.1167 I1.6046 J0.8835
G1 X36.0593 Y130.7091
G3 X35.4217 Y133.5117 I-4.1669 J0.5259
G2 X35.072 Y134.0977 I8.2459 J5.3192
G1 F800.0 X34.3712 Y133.7118
G2 F1200.0 X33.2604 Y136.7529 I9.2964 J5.119
G2 X33.6272 Y137.7859 I1.7559 J-0.042
G2 X34.789 Y138.4355 I1.4786 J-1.2807
G3 X34.897 Y138.455 I-0.5506 J3.3551
G3 X42.1282 Y142.6635 I-2.4852 J12.587
G2 X42.2789 Y142.6081 I-0.0094 J-0.2584
G2 X41.7964 Y140.9086 I-1.3122 J-0.5457
G3 X40.9327 Y140.0043 I1.9849 J-2.7605
G3 X38.7091 Y133.0934 I11.5599 J-7.5326
G3 X38.7275 Y132.5553 I3.3965 J-0.1532
G1 X39.4152 Y126.52
G2 X37.7136 Y124.6301 I-2.184 J0.2554
G3 X37.622 Y124.6082 I0.7458 J-3.3172
G2 X35.1264 Y125.6816 I-0.5492 J2.161
G2 X34.8105 Y127.2037 I2.304 J1.272
G1 X35.2656 Y130.8092
G3 X34.7495 Y133.078 I-3.3732 J0.4258
G2 X34.3712 Y133.7118 I8.9181 J5.7528
G1 F800.0 X33.6704 Y133.3259
G2 F1200.0 X32.4601 Y136.6767 I9.9972 J5.5049
G2 X33.0083 Y138.293 I2.5561 J0.0342
G2 X34.6595 Y139.2249 I2.0975 J-1.7878
G3 X34.742 Y139.2398 I-0.4211 J2.5657
G3 X41.6745 Y143.3659 I-2.3302 J11.8021
G2 X42.9527 Y143.0572 I0.4443 J-0.9609
G2 X42.2634 Y140.259 I-1.9859 J-0.9948
G3 X41.6029 Y139.5675 I1.5179 J-2.1109
G3 X39.5083 Y133.0574 I10.8897 J-7.0959
G3 X39.5223 Y132.6458 I2.5974 J-0.1172
G1 X40.2197 Y126.526
G2 X37.889 Y123.8496 I-2.9885 J0.2494
G3 X37.819 Y123.8328 I0.5703 J-2.5367
G2 X34.427 Y125.2931 I-0.7462 J2.9364
G2 X34.0154 Y127.2927 I3.0033 J1.6604
G1 X34.4719 Y130.9094
G3 X34.0772 Y132.6444 I-2.5795 J0.3256
G2 X33.6704 Y133.3259 I9.5904 J6.1865
G1 F800.0 X32.9696 Y132.9401
G2 F1200.0 X31.662 Y136.5916 I10.698 J5.8908
G2 X32.3895 Y138.8003 I3.3542 J0.1193
G2 X34.5299 Y140.0144 I2.7163 J-2.2951
G3 X34.5871 Y140.0247 I-0.2915 J1.7762
G3 X41.1547 Y143.9941 I-2.1753 J11.0173
G2 X43.6336 Y143.4819 I0.9641 J-1.589
G2 X42.7305 Y139.6095 I-2.6669 J-1.4195
G3 X42.2732 Y139.1308 I1.0508 J-1.4614
G3 X40.3075 Y133.0213 I10.2194 J-6.6591
G3 X40.3172 Y132.7364 I1.7982 J-0.0811
G1 X41.023 Y126.5428
G2 X38.0645 Y123.069 I-3.7917 J0.2326
G3 X38.0161 Y123.0574 I0.3948 J-1.7562
G2 X33.7276 Y124.9047 I-0.9432 J3.7117
G2 X33.2204 Y127.3828 I3.7027 J2.0488
G1 X33.6782 Y131.0096
G3 X33.4049 Y132.2107 I-1.7858 J0.2254
G2 X32.9696 Y132.9401 I10.2627 J6.6201
G1 F800.0 X32.2688 Y132.5542
G2 F1200.0 X30.8652 Y136.5014 I11.3988 J6.2767
G2 X31.7708 Y139.3076 I4.1511 J0.2095
G2 X34.4003 Y140.8038 I3.335 J-2.8023
G3 X34.4321 Y140.8095 I-0.162 J0.9868
G3 X40.6097 Y144.5938 I-2.0203 J10.2324
G2 X44.316 Y143.9018 I1.5091 J-2.1888
G2 X43.1975 Y138.96 I-3.3493 J-1.8394
G3 X42.9435 Y138.694 I0.5838 J-0.8119
G3 X41.1066 Y132.9853 I9.5491 J-6.2224
G3 X41.1121 Y132.827 I0.999 J-0.0451
G1 X41.8254 Y126.5671
G2 X38.24 Y122.2885 I-4.5941 J0.2082
G3 X38.2131 Y122.2821 I0.2194 J-0.9756
G2 X33.0282 Y124.5163 I-1.1402 J4.4871
G2 X32.4256 Y127.4739 I4.4021 J2.4372
G1 X32.8845 Y131.1098
G3 X32.7327 Y131.7771 I-0.9921 J0.1252
G2 X32.2688 Y132.5542 I10.9349 J7.0538
G0 Z5.0
G0 X36.4735 Y134.8695
G0 Z-1.5
G1 F800.0 Z-3.0
G2 F1200.0 X35.8834 Y136.2129 I7.1941 J3.9614
G3 X36.7927 Y136.4557 I-3.4716 J14.829
G3 X36.4735 Y134.8695 I15.6999 J-3.984
G1 F800.0 X35.7727 Y134.4836
G2 F1200.0 X34.8895 Y136.7881 I7.8949 J4.3473
G2 X35.0481 Y136.8566 I0.2163 J-0.2829
G3 X35.2069 Y136.8853 I-0.8098 J4.934
G3 X38.028 Y137.7498 I-2.7951 J14.1567
G3 X37.1107 Y133.1655 I14.4646 J-5.2781
G3 X37.1378 Y132.3741 I4.9949 J-0.2253
G1 X37.7978 Y126.5815
G2 X37.3626 Y126.1911 I-0.5666 J0.1939
G3 X37.2279 Y126.1589 I1.0968 J-4.8782
G2 X36.525 Y126.4587 I-0.1551 J0.6103
G2 X36.4016 Y127.033 I0.9054 J0.4948
G1 X36.853 Y130.6089
G3 X36.094 Y133.9454 I-4.9606 J0.6261
G2 X35.7727 Y134.4836 I7.5736 J4.8855
G1 F800.0 X35.072 Y134.0977
G2 F1200.0 X34.0651 Y136.8109 I8.5956 J4.7332
G2 X34.2469 Y137.279 I0.9511 J-0.1
G2 X34.9186 Y137.646 I0.8589 J-0.7738
G3 X35.0519 Y137.6701 I-0.6802 J4.1446
G3 X39.7181 Y139.5357 I-2.6402 J13.3718
G3 X37.9099 Y133.1295 I12.7745 J-7.0641
G3 X37.9326 Y132.4647 I4.1957 J-0.1893
G1 X38.6087 Y126.5317
G2 X37.5381 Y125.4106 I-1.3775 J0.2437
G3 X37.425 Y125.3835 I0.9213 J-4.0977
G2 X35.8257 Y126.07 I-0.3521 J1.3857
G2 X35.6059 Y127.1167 I1.6046 J0.8835
G1 X36.0593 Y130.7091
G3 X35.4217 Y133.5117 I-4.1669 J0.5259
G2 X35.072 Y134.0977 I8.2459 J5.3192
G1 F800.0 X34.3712 Y133.7118
G2 F1200.0 X33.2604 Y136.7529 I9.2964 J5.119
G2 X33.6272 Y137.7859 I1.7559 J-0.042
G2 X34.789 Y138.4355 I1.4786 J-1.2807
G3 X34.897 Y138.455 I-0.5506 J3.3551
G3 X42.1282 Y142.6635 I-2.4852 J12.587
G2 X42.2789 Y142.6081 I-0.0094 J-0.2584
G2 X41.7964 Y140.9086 I-1.3122 J-0.5457
G3 X40.9327 Y140.0043 I1.9849 J-2.7605
G3 X38.7091 Y133.0934 I11.5599 J-7.5326
G3 X38.7275 Y132.5553 I3.3965 J-0.1532
G1 X39.4152 Y126.52
G2 X37.7136 Y124.6301 I-2.184 J0.2554
G3 X37.622 Y124.6082 I0.7458 J-3.3172
G2 X35.1264 Y125.6816 I-0.5492 J2.161
G2 X34.8105 Y127.2037 I2.304 J1.272
G1 X35.2656 Y130.8092
G3 X34.7495 Y133.078 I-3.3732 J0.4258
G2 X34.3712 Y133.7118 I8.9181 J5.7528
G1 F800.0 X33.6704 Y133.3259
G2 F1200.0 X32.4601 Y136.6767 I9.9972 J5.5049
G2 X33.0083 Y138.293 I2.5561 J0.0342
G2 X34.6595 Y139.2249 I2.0975 J-1.7878
G3 X34.742 Y139.2398 I-0.4211 J2.5657
G3 X41.6745 Y143.3659 I-2.3302 J11.8021
G2 X42.9527 Y143.0572 I0.4443 J-0.9609
G2 X42.2634 Y140.259 I-1.9859 J-0.9948
G3 X41.6029 Y139.5675 I1.5179 J-2.1109
G3 X39.5083 Y133.0574 I10.8897 J-7.0959
G3 X39.5223 Y132.6458 I2.5974 J-0.1172
G1 X40.2197 Y126.526
G2 X37.889 Y123.8496 I-2.9885 J0.2494
G3 X37.819 Y123.8328 I0.5703 J-2.5367
G2 X34.427 Y125.2931 I-0.7462 J2.9364
G2 X34.0154 Y127.2927 I3.0033 J1.6604
G1 X34.4719 Y130.9094
G3 X34.0772 Y132.6444 I-2.5795 J0.3256
G2 X33.6704 Y133.3259 I9.5904 J6.1865
G1 F800.0 X32.9696 Y132.9401
G2 F1200.0 X31.662 Y136.5916 I10.698 J5.8908
G2 X32.3895 Y138.8003 I3.3542 J0.1193
G2 X34.5299 Y140.0144 I2.7163 J-2.2951
G3 X34.5871 Y140.0247 I-0.2915 J1.7762
G3 X41.1547 Y143.9941 I-2.1753 J11.0173
G2 X43.6336 Y143.4819 I0.9641 J-1.589
G2 X42.7305 Y139.6095 I-2.6669 J-1.4195
G3 X42.2732 Y139.1308 I1.0508 J-1.4614
G3 X40.3075 Y133.0213 I10.2194 J-6.6591
G3 X40.3172 Y132.7364 I1.7982 J-0.0811
G1 X41.023 Y126.5428
G2 X38.0645 Y123.069 I-3.7917 J0.2326
G3 X38.0161 Y123.0574 I0.3948 J-1.7562
G2 X33.7276 Y124.9047 I-0.9432 J3.7117
G2 X33.2204 Y127.3828 I3.7027 J2.0488
G1 X33.6782 Y131.0096
G3 X33.4049 Y132.2107 I-1.7858 J0.2254
G2 X32.9696 Y132.9401 I10.2627 J6.6201
G1 F800.0 X32.2688 Y132.5542
G2 F1200.0 X30.8652 Y136.5014 I11.3988 J6.2767
G2 X31.7708 Y139.3076 I4.1511 J0.2095
G2 X34.4003 Y140.8038 I3.335 J-2.8023
G3 X34.4321 Y140.8095 I-0.162 J0.9868
G3 X40.6097 Y144.5938 I-2.0203 J10.2324
G2 X44.316 Y143.9018 I1.5091 J-2.1888
G2 X43.1975 Y138.96 I-3.3493 J-1.8394
G3 X42.9435 Y138.694 I0.5838 J-0.8119
G3 X41.1066 Y132.9853 I9.5491 J-6.2224
G3 X41.1121 Y132.827 I0.999 J-0.0451
G1 X41.8254 Y126.5671
G2 X38.24 Y122.2885 I-4.5941 J0.2082
G3 X38.2131 Y122.2821 I0.2194 J-0.9756
G2 X33.0282 Y124.5163 I-1.1402 J4.4871
G2 X32.4256 Y127.4739 I4.4021 J2.4372
G1 X32.8845 Y131.1098
G3 X32.7327 Y131.7771 I-0.9921 J0.1252
G2 X32.2688 Y132.5542 I10.9349 J7.0538
G0 Z5.0
G0 X36.4735 Y134.8695
G0 Z-2.0
G1 F800.0 Z-3.5
G2 F1200.0 X35.8834 Y136.2129 I7.1941 J3.9614
G3 X36.7927 Y136.4557 I-3.4716 J14.829
G3 X36.4735 Y134.8695 I15.6999 J-3.984
G1 F800.0 X35.7727 Y134.4836
G2 F1200.0 X34.8895 Y136.7881 I7.8949 J4.3473
G2 X35.0481 Y136.8566 I0.2163 J-0.2829
G3 X35.2069 Y136.8853 I-0.8098 J4.934
G3 X38.028 Y137.7498 I-2.7951 J14.1567
G3 X37.1107 Y133.1655 I14.4646 J-5.2781
G3 X37.1378 Y132.3741 I4.9949 J-0.2253
G1 X37.7978 Y126.5815
G2 X37.3626 Y126.1911 I-0.5666 J0.1939
G3 X37.2279 Y126.1589 I1.0968 J-4.8782
G2 X36.525 Y126.4587 I-0.1551 J0.6103
G2 X36.4016 Y127.033 I0.9054 J0.4948
G1 X36.853 Y130.6089
G3 X36.094 Y133.9454 I-4.9606 J0.6261
G2 X35.7727 Y134.4836 I7.5736 J4.8855
G1 F800.0 X35.072 Y134.0977
G2 F1200.0 X34.0651 Y136.8109 I8.5956 J4.7332
G2 X34.2469 Y137.279 I0.9511 J-0.1
G2 X34.9186 Y137.646 I0.8589 J-0.7738
G3 X35.0519 Y137.6701 I-0.6802 J4.1446
G3 X39.7181 Y139.5357 I-2.6402 J13.3718
G3 X37.9099 Y133.1295 I12.7745 J-7.0641
G3 X37.9326 Y132.4647 I4.1957 J-0.1893
G1 X38.6087 Y126.5317
G2 X37.5381 Y125.4106 I-1.3775 J0.2437
G3 X37.425 Y125.3835 I0.9213 J-4.0977
G2 X35.8257 Y126.07 I-0.3521 J1.3857
G2 X35.6059 Y127.1167 I1.6046 J0.8835
G1 X36.0593 Y130.7091
G3 X35.4217 Y133.5117 I-4.1669 J0.5259
G2 X35.072 Y134.0977 I8.2459 J5.3192
G1 F800.0 X34.3712 Y133.7118
G2 F1200.0 X33.2604 Y136.7529 I9.2964 J5.119
G2 X33.6272 Y137.7859 I1.7559 J-0.042
G2 X34.789 Y138.4355 I1.4786 J-1.2807
G3 X34.897 Y138.455 I-0.5506 J3.3551
G3 X42.1282 Y142.6635 I-2.4852 J12.587
G2 X42.2789 Y142.6081 I-0.0094 J-0.2584
G2 X41.7964 Y140.9086 I-1.3122 J-0.5457
G3 X40.9327 Y140.0043 I1.9849 J-2.7605
G3 X38.7091 Y133.0934 I11.5599 J-7.5326
G3 X38.7275 Y132.5553 I3.3965 J-0.1532
G1 X39.4152 Y126.52
G2 X37.7136 Y124.6301 I-2.184 J0.2554
G3 X37.622 Y124.6082 I0.7458 J-3.3172
G2 X35.1264 Y125.6816 I-0.5492 J2.161
G2 X34.8105 Y127.2037 I2.304 J1.272
G1 X35.2656 Y130.8092
G3 X34.7495 Y133.078 I-3.3732 J0.4258
G2 X34.3712 Y133.7118 I8.9181 J5.7528
G1 F800.0 X33.6704 Y133.3259
G2 F1200.0 X32.4601 Y136.6767 I9.9972 J5.5049
G2 X33.0083 Y138.293 I2.5561 J0.0342
G2 X34.6595 Y139.2249 I2.0975 J-1.7878
G3 X34.742 Y139.2398 I-0.4211 J2.5657
G3 X41.6745 Y143.3659 I-2.3302 J11.8021
G2 X42.9527 Y143.0572 I0.4443 J-0.9609
G2 X42.2634 Y140.259 I-1.9859 J-0.9948
G3 X41.6029 Y139.5675 I1.5179 J-2.1109
G3 X39.5083 Y133.0574 I10.8897 J-7.0959
G3 X39.5223 Y132.6458 I2.5974 J-0.1172
G1 X40.2197 Y126.526
G2 X37.889 Y123.8496 I-2.9885 J0.2494
G3 X37.819 Y123.8328 I0.5703 J-2.5367
G2 X34.427 Y125.2931 I-0.7462 J2.9364
G2 X34.0154 Y127.2927 I3.0033 J1.6604
G1 X34.4719 Y130.9094
G3 X34.0772 Y132.6444 I-2.5795 J0.3256
G2 X33.6704 Y133.3259 I9.5904 J6.1865
G1 F800.0 X32.9696 Y132.9401
G2 F1200.0 X31.662 Y136.5916 I10.698 J5.8908
G2 X32.3895 Y138.8003 I3.3542 J0.1193
G2 X34.5299 Y140.0144 I2.7163 J-2.2951
G3 X34.5871 Y140.0247 I-0.2915 J1.7762
G3 X41.1547 Y143.9941 I-2.1753 J11.0173
G2 X43.6336 Y143.4819 I0.9641 J-1.589
G2 X42.7305 Y139.6095 I-2.6669 J-1.4195
G3 X42.2732 Y139.1308 I1.0508 J-1.4614
G3 X40.3075 Y133.0213 I10.2194 J-6.6591
G3 X40.3172 Y132.7364 I1.7982 J-0.0811
G1 X41.023 Y126.5428
G2 X38.0645 Y123.069 I-3.7917 J0.2326
G3 X38.0161 Y123.0574 I0.3948 J-1.7562
G2 X33.7276 Y124.9047 I-0.9432 J3.7117
G2 X33.2204 Y127.3828 I3.7027 J2.0488
G1 X33.6782 Y131.0096
G3 X33.4049 Y132.2107 I-1.7858 J0.2254
G2 X32.9696 Y132.9401 I10.2627 J6.6201
G1 F800.0 X32.2688 Y132.5542
G2 F1200.0 X30.8652 Y136.5014 I11.3988 J6.2767
G2 X31.7708 Y139.3076 I4.1511 J0.2095
G2 X34.4003 Y140.8038 I3.335 J-2.8023
G3 X34.4321 Y140.8095 I-0.162 J0.9868
G3 X40.6097 Y144.5938 I-2.0203 J10.2324
G2 X44.316 Y143.9018 I1.5091 J-2.1888
G2 X43.1975 Y138.96 I-3.3493 J-1.8394
G3 X42.9435 Y138.694 I0.5838 J-0.8119
G3 X41.1066 Y132.9853 I9.5491 J-6.2224
G3 X41.1121 Y132.827 I0.999 J-0.0451
G1 X41.8254 Y126.5671
G2 X38.24 Y122.2885 I-4.5941 J0.2082
G3 X38.2131 Y122.2821 I0.2194 J-0.9756
G2 X33.0282 Y124.5163 I-1.1402 J4.4871
G2 X32.4256 Y127.4739 I4.4021 J2.4372
G1 X32.8845 Y131.1098
G3 X32.7327 Y131.7771 I-0.9921 J0.1252
G2 X32.2688 Y132.5542 I10.9349 J7.0538
G0 Z5.0
G0 X36.4735 Y134.8695
G0 Z-2.5
G1 F800.0 Z-4.0
G2 F1200.0 X35.8834 Y136.2129 I7.1941 J3.9614
G3 X36.7927 Y136.4557 I-3.4716 J14.829
G3 X36.4735 Y134.8695 I15.6999 J-3.984
G1 F800.0 X35.7727 Y134.4836
G2 F1200.0 X34.8895 Y136.7881 I7.8949 J4.3473
G2 X35.0481 Y136.8566 I0.2163 J-0.2829
G3 X35.2069 Y136.8853 I-0.8098 J4.934
G3 X38.028 Y137.7498 I-2.7951 J14.1567
G3 X37.1107 Y133.1655 I14.4646 J-5.2781
G3 X37.1378 Y132.3741 I4.9949 J-0.2253
G1 X37.7978 Y126.5815
G2 X37.3626 Y126.1911 I-0.5666 J0.1939
G3 X37.2279 Y126.1589 I1.0968 J-4.8782
G2 X36.525 Y126.4587 I-0.1551 J0.6103
G2 X36.4016 Y127.033 I0.9054 J0.4948
G1 X36.853 Y130.6089
G3 X36.094 Y133.9454 I-4.9606 J0.6261
G2 X35.7727 Y134.4836 I7.5736 J4.8855
G1 F800.0 X35.072 Y134.0977
G2 F1200.0 X34.0651 Y136.8109 I8.5956 J4.7332
G2 X34.2469 Y137.279 I0.9511 J-0.1
G2 X34.9186 Y137.646 I0.8589 J-0.7738
G3 X35.0519 Y137.6701 I-0.6802 J4.1446
G3 X39.7181 Y139.5357 I-2.6402 J13.3718
G3 X37.9099 Y133.1295 I12.7745 J-7.0641
G3 X37.9326 Y132.4647 I4.1957 J-0.1893
G1 X38.6087 Y126.5317
G2 X37.5381 Y125.4106 I-1.3775 J0.2437
G3 X37.425 Y125.3835 I0.9213 J-4.0977
G2 X35.8257 Y126.07 I-0.3521 J1.3857
G2 X35.6059 Y127.1167 I1.6046 J0.8835
G1 X36.0593 Y130.7091
G3 X35.4217 Y133.5117 I-4.1669 J0.5259
G2 X35.072 Y134.0977 I8.2459 J5.3192
G1 F800.0 X34.3712 Y133.7118
G2 F1200.0 X33.2604 Y136.7529 I9.2964 J5.119
G2 X33.6272 Y137.7859 I1.7559 J-0.042
G2 X34.789 Y138.4355 I1.4786 J-1.2807
G3 X34.897 Y138.455 I-0.5506 J3.3551
G3 X42.1282 Y142.6635 I-2.4852 J12.587
G2 X42.2789 Y142.6081 I-0.0094 J-0.2584
G2 X41.7964 Y140.9086 I-1.3122 J-0.5457
G3 X40.9327 Y140.0043 I1.9849 J-2.7605
G3 X38.7091 Y133.0934 I11.5599 J-7.5326
G3 X38.7275 Y132.5553 I3.3965 J-0.1532
G1 X39.4152 Y126.52
G2 X37.7136 Y124.6301 I-2.184 J0.2554
G3 X37.622 Y124.6082 I0.7458 J-3.3172
G2 X35.1264 Y125.6816 I-0.5492 J2.161
G2 X34.8105 Y127.2037 I2.304 J1.272
G1 X35.2656 Y130.8092
G3 X34.7495 Y133.078 I-3.3732 J0.4258
G2 X34.3712 Y133.7118 I8.9181 J5.7528
G1 F800.0 X33.6704 Y133.3259
G2 F1200.0 X32.4601 Y136.6767 I9.9972 J5.5049
G2 X33.0083 Y138.293 I2.5561 J0.0342
G2 X34.6595 Y139.2249 I2.0975 J-1.7878
G3 X34.742 Y139.2398 I-0.4211 J2.5657
G3 X41.6745 Y143.3659 I-2.3302 J11.8021
G2 X42.9527 Y143.0572 I0.4443 J-0.9609
G2 X42.2634 Y140.259 I-1.9859 J-0.9948
G3 X41.6029 Y139.5675 I1.5179 J-2.1109
G3 X39.5083 Y133.0574 I10.8897 J-7.0959
G3 X39.5223 Y132.6458 I2.5974 J-0.1172
G1 X40.2197 Y126.526
G2 X37.889 Y123.8496 I-2.9885 J0.2494
G3 X37.819 Y123.8328 I0.5703 J-2.5367
G2 X34.427 Y125.2931 I-0.7462 J2.9364
G2 X34.0154 Y127.2927 I3.0033 J1.6604
G1 X34.4719 Y130.9094
G3 X34.0772 Y132.6444 I-2.5795 J0.3256
G2 X33.6704 Y133.3259 I9.5904 J6.1865
G1 F800.0 X32.9696 Y132.9401
G2 F1200.0 X31.662 Y136.5916 I10.698 J5.8908
G2 X32.3895 Y138.8003 I3.3542 J0.1193
G2 X34.5299 Y140.0144 I2.7163 J-2.2951
G3 X34.5871 Y140.0247 I-0.2915 J1.7762
G3 X41.1547 Y143.9941 I-2.1753 J11.0173
G2 X43.6336 Y143.4819 I0.9641 J-1.589
G2 X42.7305 Y139.6095 I-2.6669 J-1.4195
G3 X42.2732 Y139.1308 I1.0508 J-1.4614
G3 X40.3075 Y133.0213 I10.2194 J-6.6591
G3 X40.3172 Y132.7364 I1.7982 J-0.0811
G1 X41.023 Y126.5428
G2 X38.0645 Y123.069 I-3.7917 J0.2326
G3 X38.0161 Y123.0574 I0.3948 J-1.7562
G2 X33.7276 Y124.9047 I-0.9432 J3.7117
G2 X33.2204 Y127.3828 I3.7027 J2.0488
G1 X33.6782 Y131.0096
G3 X33.4049 Y132.2107 I-1.7858 J0.2254
G2 X32.9696 Y132.9401 I10.2627 J6.6201
G1 F800.0 X32.2688 Y132.5542
G2 F1200.0 X30.8652 Y136.5014 I11.3988 J6.2767
G2 X31.7708 Y139.3076 I4.1511 J0.2095
G2 X34.4003 Y140.8038 I3.335 J-2.8023
G3 X34.4321 Y140.8095 I-0.162 J0.9868
G3 X40.6097 Y144.5938 I-2.0203 J10.2324
G2 X44.316 Y143.9018 I1.5091 J-2.1888
G2 X43.1975 Y138.96 I-3.3493 J-1.8394
G3 X42.9435 Y138.694 I0.5838 J-0.8119
G3 X41.1066 Y132.9853 I9.5491 J-6.2224
G3 X41.1121 Y132.827 I0.999 J-0.0451
G1 X41.8254 Y126.5671
G2 X38.24 Y122.2885 I-4.5941 J0.2082
G3 X38.2131 Y122.2821 I0.2194 J-0.9756
G2 X33.0282 Y124.5163 I-1.1402 J4.4871
G2 X32.4256 Y127.4739 I4.4021 J2.4372
G1 X32.8845 Y131.1098
G3 X32.7327 Y131.7771 I-0.9921 J0.1252
G2 X32.2688 Y132.5542 I10.9349 J7.0538
G0 Z5.0
G0 X36.4735 Y134.8695
G0 Z-3.0
G1 F800.0 Z-4.3
G2 F1200.0 X35.8834 Y136.2129 I7.1941 J3.9614
G3 X36.7927 Y136.4557 I-3.4716 J14.829
G3 X36.4735 Y134.8695 I15.6999 J-3.984
G1 F800.0 X35.7727 Y134.4836
G2 F1200.0 X34.8895 Y136.7881 I7.8949 J4.3473
G2 X35.0481 Y136.8566 I0.2163 J-0.2829
G3 X35.2069 Y136.8853 I-0.8098 J4.934
G3 X38.028 Y137.7498 I-2.7951 J14.1567
G3 X37.1107 Y133.1655 I14.4646 J-5.2781
G3 X37.1378 Y132.3741 I4.9949 J-0.2253
G1 X37.7978 Y126.5815
G2 X37.3626 Y126.1911 I-0.5666 J0.1939
G3 X37.2279 Y126.1589 I1.0968 J-4.8782
G2 X36.525 Y126.4587 I-0.1551 J0.6103
G2 X36.4016 Y127.033 I0.9054 J0.4948
G1 X36.853 Y130.6089
G3 X36.094 Y133.9454 I-4.9606 J0.6261
G2 X35.7727 Y134.4836 I7.5736 J4.8855
G1 F800.0 X35.072 Y134.0977
G2 F1200.0 X34.0651 Y136.8109 I8.5956 J4.7332
G2 X34.2469 Y137.279 I0.9511 J-0.1
G2 X34.9186 Y137.646 I0.8589 J-0.7738
G3 X35.0519 Y137.6701 I-0.6802 J4.1446
G3 X39.7181 Y139.5357 I-2.6402 J13.3718
G3 X37.9099 Y133.1295 I12.7745 J-7.0641
G3 X37.9326 Y132.4647 I4.1957 J-0.1893
G1 X38.6087 Y126.5317
G2 X37.5381 Y125.4106 I-1.3775 J0.2437
G3 X37.425 Y125.3835 I0.9213 J-4.0977
G2 X35.8257 Y126.07 I-0.3521 J1.3857
G2 X35.6059 Y127.1167 I1.6046 J0.8835
G1 X36.0593 Y130.7091
G3 X35.4217 Y133.5117 I-4.1669 J0.5259
G2 X35.072 Y134.0977 I8.2459 J5.3192
G1 F800.0 X34.3712 Y133.7118
G2 F1200.0 X33.2604 Y136.7529 I9.2964 J5.119
G2 X33.6272 Y137.7859 I1.7559 J-0.042
G2 X34.789 Y138.4355 I1.4786 J-1.2807
G3 X34.897 Y138.455 I-0.5506 J3.3551
G3 X42.1282 Y142.6635 I-2.4852 J12.587
G2 X42.2789 Y142.6081 I-0.0094 J-0.2584
G2 X41.7964 Y140.9086 I-1.3122 J-0.5457
G3 X40.9327 Y140.0043 I1.9849 J-2.7605
G3 X38.7091 Y133.0934 I11.5599 J-7.5326
G3 X38.7275 Y132.5553 I3.3965 J-0.1532
G1 X39.4152 Y126.52
G2 X37.7136 Y124.6301 I-2.184 J0.2554
G3 X37.622 Y124.6082 I0.7458 J-3.3172
G2 X35.1264 Y125.6816 I-0.5492 J2.161
G2 X34.8105 Y127.2037 I2.304 J1.272
G1 X35.2656 Y130.8092
G3 X34.7495 Y133.078 I-3.3732 J0.4258
G2 X34.3712 Y133.7118 I8.9181 J5.7528
G1 F800.0 X33.6704 Y133.3259
G2 F1200.0 X32.4601 Y136.6767 I9.9972 J5.5049
G2 X33.0083 Y138.293 I2.5561 J0.0342
G2 X34.6595 Y139.2249 I2.0975 J-1.7878
G3 X34.742 Y139.2398 I-0.4211 J2.5657
G3 X41.6745 Y143.3659 I-2.3302 J11.8021
G2 X42.9527 Y143.0572 I0.4443 J-0.9609
G2 X42.2634 Y140.259 I-1.9859 J-0.9948
G3 X41.6029 Y139.5675 I1.5179 J-2.1109
G3 X39.5083 Y133.0574 I10.8897 J-7.0959
G3 X39.5223 Y132.6458 I2.5974 J-0.1172
G1 X40.2197 Y126.526
G2 X37.889 Y123.8496 I-2.9885 J0.2494
G3 X37.819 Y123.8328 I0.5703 J-2.5367
G2 X34.427 Y125.2931 I-0.7462 J2.9364
G2 X34.0154 Y127.2927 I3.0033 J1.6604
G1 X34.4719 Y130.9094
G3 X34.0772 Y132.6444 I-2.5795 J0.3256
G2 X33.6704 Y133.3259 I9.5904 J6.1865
G1 F800.0 X32.9696 Y132.9401
G2 F1200.0 X31.662 Y136.5916 I10.698 J5.8908
G2 X32.3895 Y138.8003 I3.3542 J0.1193
G2 X34.5299 Y140.0144 I2.7163 J-2.2951
G3 X34.5871 Y140.0247 I-0.2915 J1.7762
G3 X41.1547 Y143.9941 I-2.1753 J11.0173
G2 X43.6336 Y143.4819 I0.9641 J-1.589
G2 X42.7305 Y139.6095 I-2.6669 J-1.4195
G3 X42.2732 Y139.1308 I1.0508 J-1.4614
G3 X40.3075 Y133.0213 I10.2194 J-6.6591
G3 X40.3172 Y132.7364 I1.7982 J-0.0811
G1 X41.023 Y126.5428
G2 X38.0645 Y123.069 I-3.7917 J0.2326
G3 X38.0161 Y123.0574 I0.3948 J-1.7562
G2 X33.7276 Y124.9047 I-0.9432 J3.7117
G2 X33.2204 Y127.3828 I3.7027 J2.0488
G1 X33.6782 Y131.0096
G3 X33.4049 Y132.2107 I-1.7858 J0.2254
G2 X32.9696 Y132.9401 I10.2627 J6.6201
G1 F800.0 X32.2688 Y132.5542
G2 F1200.0 X30.8652 Y136.5014 I11.3988 J6.2767
G2 X31.7708 Y139.3076 I4.1511 J0.2095
G2 X34.4003 Y140.8038 I3.335 J-2.8023
G3 X34.4321 Y140.8095 I-0.162 J0.9868
G3 X40.6097 Y144.5938 I-2.0203 J10.2324
G2 X44.316 Y143.9018 I1.5091 J-2.1888
G2 X43.1975 Y138.96 I-3.3493 J-1.8394
G3 X42.9435 Y138.694 I0.5838 J-0.8119
G3 X41.1066 Y132.9853 I9.5491 J-6.2224
G3 X41.1121 Y132.827 I0.999 J-0.0451
G1 X41.8254 Y126.5671
G2 X38.24 Y122.2885 I-4.5941 J0.2082
G3 X38.2131 Y122.2821 I0.2194 J-0.9756
G2 X33.0282 Y124.5163 I-1.1402 J4.4871
G2 X32.4256 Y127.4739 I4.4021 J2.4372
G1 X32.8845 Y131.1098
G3 X32.7327 Y131.7771 I-0.9921 J0.1252
G2 X32.2688 Y132.5542 I10.9349 J7.0538
G0 Z5.0
G0 X45.5191 Y54.47
G0 Z1.0
G1 F800.0 Z-0.5
G1 F1200.0 X46.1332 Y54.4682
G2 X46.168 Y53.4547 I-5.4857 J-0.6959
G1 X45.5191 Y54.47
G1 F800.0 X45.5203 Y54.87
G1 F1200.0 X46.4752 Y54.8673
G2 X46.5004 Y52.8213 I-5.8277 J-1.0949
G3 X46.4389 Y52.288 I5.7249 J-0.9302
G1 X45.1389 Y54.3221
G3 X44.7401 Y54.8722 I-4.8871 J-3.1234
G1 X45.5203 Y54.87
G1 F800.0 X45.5226 Y55.67
G1 F1200.0 X47.1054 Y55.6654
G2 X47.2901 Y52.693 I-6.4579 J-1.8931
G3 X50.3743 Y47.2464 I4.9353 J-0.8019
G2 X50.9719 Y46.5069 I-0.3593 J-0.9016
G2 X50.9128 Y46.4953 I-0.255 J1.1432
G2 X48.131 Y48.155 I0.8665 J4.6136
G1 X44.4649 Y53.8912
G3 X42.5994 Y55.6132 I-4.213 J-2.6926
G2 X42.4782 Y55.6787 I4.9702 J9.3464
G1 X45.5226 Y55.67
G1 F800.0 X45.5249 Y56.47
G1 F1200.0 X47.6797 Y56.4638
G2 X48.0797 Y52.5647 I-7.0322 J-2.6914
G3 X50.6705 Y47.9895 I4.1456 J-0.6736
G2 X51.745 Y45.9681 I-0.6554 J-1.6447
G2 X50.8926 Y45.6867 I-1.0281 J1.6819
G2 X47.48 Y47.6879 I0.8867 J5.4222
G1 X43.7908 Y53.4604
G3 X42.2238 Y54.9069 I-3.539 J-2.2618
G2 X39.9649 Y56.4859 I5.3458 J10.0527
G1 X45.5249 Y56.47
G1 F800.0 X45.5271 Y57.27
G1 F1200.0 X48.2108 Y57.2623
G2 X48.8693 Y52.4364 I-7.5633 J-3.4899
G3 X50.9667 Y48.7327 I3.356 J-0.5453
G2 X52.4338 Y45.4747 I-0.9516 J-2.3879
G2 X50.8581 Y44.8824 I-1.7168 J2.1754
G2 X46.8275 Y47.2234 I0.9212 J6.2265
G1 X43.1167 Y53.0296
G3 X41.8482 Y54.2006 I-2.8649 J-1.831
G2 X37.6135 Y57.9333 I5.7214 J10.7591
G2 X37.8322 Y57.9472 I0.1176 J-0.1234
G3 X39.8367 Y57.2863 I2.0143 J2.7391
G1 X45.5271 Y57.27
G1 F800.0 X45.5294 Y58.07
G1 F1200.0 X48.7072 Y58.0609
G2 X49.659 Y52.3081 I-8.0597 J-4.2885
G3 X51.2628 Y49.4758 I2.5663 J-0.417
G2 X53.1023 Y44.9922 I-1.2478 J-3.131
G2 X50.817 Y44.0802 I-2.3853 J2.6579
G2 X46.1736 Y46.761 I0.9624 J7.0286
G1 X42.4426 Y52.5988
G3 X41.4726 Y53.4942 I-2.1908 J-1.4002
G2 X36.7619 Y57.7608 I6.097 J11.4654
G2 X38.3061 Y58.5917 I0.9693 J0.0491
G3 X39.839 Y58.0863 I1.5403 J2.0946
G1 X45.5294 Y58.07
G1 F800.0 X45.5317 Y58.87
G1 F1200.0 X49.175 Y58.8595
G2 X50.4486 Y52.1798 I-8.5275 J-5.0872
G3 X51.559 Y50.219 I1.7767 J-0.2887
G2 X53.7623 Y44.5142 I-1.5439 J-3.8742
G2 X50.772 Y43.2792 I-3.0454 J3.1359
G2 X45.5186 Y46.3003 I1.0073 J7.8297
G1 X41.7685 Y52.168
G3 X41.0969 Y52.7879 I-1.5167 J-0.9693
G2 X35.9926 Y57.4749 I6.4726 J12.1718
G2 X38.7801 Y59.2362 I1.7385 J0.3349
G3 X39.8413 Y58.8863 I1.0664 J1.4501
G1 X45.5317 Y58.87
G1 F800.0 X45.534 Y59.67
G1 F1200.0 X49.6187 Y59.6583
G2 X51.2383 Y52.0515 I-8.9712 J-5.8859
G3 X51.8551 Y50.9622 I0.9871 J-0.1604
G2 X54.4181 Y44.0385 I-1.8401 J-4.6174
G2 X50.7248 Y42.4788 I-3.7011 J3.6115
G2 X44.8627 Y45.8411 I1.0545 J8.63
G1 X41.0944 Y51.7371
G3 X40.7213 Y52.0815 I-0.8426 J-0.5385
G2 X35.244 Y57.1607 I6.8482 J12.8781
G2 X39.254 Y59.8807 I2.4872 J0.6491
G3 X39.8436 Y59.6863 I0.5924 J0.8056
G1 X45.534 Y59.67
G0 Z5.0
G0 X45.5191 Y54.47
G0 Z0.5
G1 F800.0 Z-1.0
G1 F1200.0 X46.1332 Y54.4682
G2 X46.168 Y53.4547 I-5.4857 J-0.6959
G1 X45.5191 Y54.47
G1 F800.0 X45.5203 Y54.87
G1 F1200.0 X46.4752 Y54.8673
G2 X46.5004 Y52.8213 I-5.8277 J-1.0949
G3 X46.4389 Y52.288 I5.7249 J-0.9302
G1 X45.1389 Y54.3221
G3 X44.7401 Y54.8722 I-4.8871 J-3.1234
G1 X45.5203 Y54.87
G1 F800.0 X45.5226 Y55.67
G1 F1200.0 X47.1054 Y55.6654
G2 X47.2901 Y52.693 I-6.4579 J-1.8931
G3 X50.3743 Y47.2464 I4.9353 J-0.8019
G2 X50.9719 Y46.5069 I-0.3593 J-0.9016
G2 X50.9128 Y46.4953 I-0.255 J1.1432
G2 X48.131 Y48.155 I0.8665 J4.6136
G1 X44.4649 Y53.8912
G3 X42.5994 Y55.6132 I-4.213 J-2.6926
G2 X42.4782 Y55.6787 I4.9702 J9.3464
G1 X45.5226 Y55.67
G1 F800.0 X45.5249 Y56.47
G1 F1200.0 X47.6797 Y56.4638
G2 X48.0797 Y52.5647 I-7.0322 J-2.6914
G3 X50.6705 Y47.9895 I4.1456 J-0.6736
G2 X51.745 Y45.9681 I-0.6554 J-1.6447
G2 X50.8926 Y45.6867 I-1.0281 J1.6819
G2 X47.48 Y47.6879 I0.8867 J5.4222
G1 X43.7908 Y53.4604
G3 X42.2238 Y54.9069 I-3.539 J-2.2618
G2 X39.9649 Y56.4859 I5.3458 J10.0527
G1 X45.5249 Y56.47
G1 F800.0 X45.5271 Y57.27
G1 F1200.0 X48.2108 Y57.2623
G2 X48.8693 Y52.4364 I-7.5633 J-3.4899
G3 X50.9667 Y48.7327 I3.356 J-0.5453
G2 X52.4338 Y45.4747 I-0.9516 J-2.3879
G2 X50.8581 Y44.8824 I-1.7168 J2.1754
G2 X46.8275 Y47.2234 I0.9212 J6.2265
G1 X43.1167 Y53.0296
G3 X41.8482 Y54.2006 I-2.8649 J-1.831
G2 X37.6135 Y57.9333 I5.7214 J10.7591
G2 X37.8322 Y57.9472 I0.1176 J-0.1234
G3 X39.8367 Y57.2863 I2.0143 J2.7391
G1 X45.5271 Y57.27
G1 F800.0 X45.5294 Y58.07
G1 F1200.0 X48.7072 Y58.0609
G2 X49.659 Y52.3081 I-8.0597 J-4.2885
G3 X51.2628 Y49.4758 I2.5663 J-0.417
G2 X53.1023 Y44.9922 I-1.2478 J-3.131
G2 X50.817 Y44.0802 I-2.3853 J2.6579
G2 X46.1736 Y46.761 I0.9624 J7.0286
G1 X42.4426 Y52.5988
G3 X41.4726 Y53.4942 I-2.1908 J-1.4002
G2 X36.7619 Y57.7608 I6.097 J11.4654
G2 X38.3061 Y58.5917 I0.9693 J0.0491
G3 X39.839 Y58.0863 I1.5403 J2.0946
G1 X45.5294 Y58.07
G1 F800.0 X45.5317 Y58.87
G1 F1200.0 X49.175 Y58.8595
G2 X50.4486 Y52.1798 I-8.5275 J-5.0872
G3 X51.559 Y50.219 I1.7767 J-0.2887
G2 X53.7623 Y44.5142 I-1.5439 J-3.8742
G2 X50.772 Y43.2792 I-3.0454 J3.1359
G2 X45.5186 Y46.3003 I1.0073 J7.8297
G1 X41.7685 Y52.168
G3 X41.0969 Y52.7879 I-1.5167 J-0.9693
G2 X35.9926 Y57.4749 I6.4726 J12.1718
G2 X38.7801 Y59.2362 I1.7385 J0.3349
G3 X39.8413 Y58.8863 I1.0664 J1.4501
G1 X45.5317 Y58.87
G1 F800.0 X45.534 Y59.67
G1 F1200.0 X49.6187 Y59.6583
G2 X51.2383 Y52.0515 I-8.9712 J-5.8859
G3 X51.8551 Y50.9622 I0.9871 J-0.1604
G2 X54.4181 Y44.0385 I-1.8401 J-4.6174
G2 X50.7248 Y42.4788 I-3.7011 J3.6115
G2 X44.8627 Y45.8411 I1.0545 J8.63
G1 X41.0944 Y51.7371
G3 X40.7213 Y52.0815 I-0.8426 J-0.5385
G2 X35.244 Y57.1607 I6.8482 J12.8781
G2 X39.254 Y59.8807 I2.4872 J0.6491
G3 X39.8436 Y59.6863 I0.5924 J0.8056
G1 X45.534 Y59.67
G0 Z5.0
G0 X45.5191 Y54.47
G0 Z0.0
G1 F800.0 Z-1.5
G1 F1200.0 X46.1332 Y54.4682
G2 X46.168 Y53.4547 I-5.4857 J-0.6959
G1 X45.5191 Y54.47
G1 F800.0 X45.5203 Y54.87
G1 F1200.0 X46.4752 Y54.8673
G2 X46.5004 Y52.8213 I-5.8277 J-1.0949
G3 X46.4389 Y52.288 I5.7249 J-0.9302
G1 X45.1389 Y54.3221
G3 X44.7401 Y54.8722 I-4.8871 J-3.1234
G1 X45.5203 Y54.87
G1 F800.0 X45.5226 Y55.67
G1 F1200.0 X47.1054 Y55.6654
G2 X47.2901 Y52.693 I-6.4579 J-1.8931
G3 X50.3743 Y47.2464 I4.9353 J-0.8019
G2 X50.9719 Y46.5069 I-0.3593 J-0.9016
G2 X50.9128 Y46.4953 I-0.255 J1.1432
G2 X48.131 Y48.155 I0.8665 J4.6136
G1 X44.4649 Y53.8912
G3 X42.5994 Y55.6132 I-4.213 J-2.6926
G2 X42.4782 Y55.6787 I4.9702 J9.3464
G1 X45.5226 Y55.67
G1 F800.0 X45.5249 Y56.47
G1 F1200.0 X47.6797 Y56.4638
G2 X48.0797 Y52.5647 I-7.0322 J-2.6914
G3 X50.6705 Y47.9895 I4.1456 J-0.6736
G2 X51.745 Y45.9681 I-0.6554 J-1.6447
G2 X50.8926 Y45.6867 I-1.0281 J1.6819
G2 X47.48 Y47.6879 I0.8867 J5.4222
G1 X43.7908 Y53.4604
G3 X42.2238 Y54.9069 I-3.539 J-2.2618
G2 X39.9649 Y56.4859 I5.3458 J10.0527
G1 X45.5249 Y56.47
G1 F800.0 X45.5271 Y57.27
G1 F1200.0 X48.2108 Y57.2623
G2 X48.8693 Y52.4364 I-7.5633 J-3.4899
G3 X50.9667 Y48.7327 I3.356 J-0.5453
G2 X52.4338 Y45.4747 I-0.9516 J-2.3879
G2 X50.8581 Y44.8824 I-1.7168 J2.1754
G2 X46.8275 Y47.2234 I0.9212 J6.2265
G1 X43.1167 Y53.0296
G3 X41.8482 Y54.2006 I-2.8649 J-1.831
G2 X37.6135 Y57.9333 I5.7214 J10.7591
G2 X37.8322 Y57.9472 I0.1176 J-0.1234
G3 X39.8367 Y57.2863 I2.0143 J2.7391
G1 X45.5271 Y57.27
G1 F800.0 X45.5294 Y58.07
G1 F1200.0 X48.7072 Y58.0609
G2 X49.659 Y52.3081 I-8.0597 J-4.2885
G3 X51.2628 Y49.4758 I2.5663 J-0.417
G2 X53.1023 Y44.9922 I-1.2478 J-3.131
G2 X50.817 Y44.0802 I-2.3853 J2.6579
G2 X46.1736 Y46.761 I0.9624 J7.0286
G1 X42.4426 Y52.5988
G3 X41.4726 Y53.4942 I-2.1908 J-1.4002
G2 X36.7619 Y57.7608 I6.097 J11.4654
G2 X38.3061 Y58.5917 I0.9693 J0.0491
G3 X39.839 Y58.0863 I1.5403 J2.0946
G1 X45.5294 Y58.07
G1 F800.0 X45.5317 Y58.87
G1 F1200.0 X49.175 Y58.8595
G2 X50.4486 Y52.1798 I-8.5275 J-5.0872
G3 X51.559 Y50.219 I1.7767 J-0.2887
G2 X53.7623 Y44.5142 I-1.5439 J-3.8742
G2 X50.772 Y43.2792 I-3.0454 J3.1359
G2 X45.5186 Y46.3003 I1.0073 J7.8297
G1 X41.7685 Y52.168
G3 X41.0969 Y52.7879 I-1.5167 J-0.9693
G2 X35.9926 Y57.4749 I6.4726 J12.1718
G2 X38.7801 Y59.2362 I1.7385 J0.3349
G3 X39.8413 Y58.8863 I1.0664 J1.4501
G1 X45.5317 Y58.87
G1 F800.0 X45.534 Y59.67
G1 F1200.0 X49.6187 Y59.6583
G2 X51.2383 Y52.0515 I-8.9712 J-5.8859
G3 X51.8551 Y50.9622 I0.9871 J-0.1604
G2 X54.4181 Y44.0385 I-1.8401 J-4.6174
G2 X50.7248 Y42.4788 I-3.7011 J3.6115
G2 X44.8627 Y45.8411 I1.0545 J8.63
G1 X41.0944 Y51.7371
G3 X40.7213 Y52.0815 I-0.8426 J-0.5385
G2 X35.244 Y57.1607 I6.8482 J12.8781
G2 X39.254 Y59.8807 I2.4872 J0.6491
G3 X39.8436 Y59.6863 I0.5924 J0.8056
G1 X45.534 Y59.67
G0 Z5.0
G0 X45.5191 Y54.47
G0 Z-0.5
G1 F800.0 Z-2.0
G1 F1200.0 X46.1332 Y54.4682
G2 X46.168 Y53.4547 I-5.4857 J-0.6959
G1 X45.5191 Y54.47
G1 F800.0 X45.5203 Y54.87
G1 F1200.0 X46.4752 Y54.8673
G2 X46.5004 Y52.8213 I-5.8277 J-1.0949
G3 X46.4389 Y52.288 I5.7249 J-0.9302
G1 X45.1389 Y54.3221
G3 X44.7401 Y54.8722 I-4.8871 J-3.1234
G1 X45.5203 Y54.87
G1 F800.0 X45.5226 Y55.67
G1 F1200.0 X47.1054 Y55.6654
G2 X47.2901 Y52.693 I-6.4579 J-1.8931
G3 X50.3743 Y47.2464 I4.9353 J-0.8019
G2 X50.9719 Y46.5069 I-0.3593 J-0.9016
G2 X50.9128 Y46.4953 I-0.255 J1.1432
G2 X48.131 Y48.155 I0.8665 J4.6136
G1 X44.4649 Y53.8912
G3 X42.5994 Y55.6132 I-4.213 J-2.6926
G2 X42.4782 Y55.6787 I4.9702 J9.3464
G1 X45.5226 Y55.67
G1 F800.0 X45.5249 Y56.47
G1 F1200.0 X47.6797 Y56.4638
G2 X48.0797 Y52.5647 I-7.0322 J-2.6914
G3 X50.6705 Y47.9895 I4.1456 J-0.6736
G2 X51.745 Y45.9681 I-0.6554 J-1.6447
G2 X50.8926 Y45.6867 I-1.0281 J1.6819
G2 X47.48 Y47.6879 I0.8867 J5.4222
G1 X43.7908 Y53.4604
G3 X42.2238 Y54.9069 I-3.539 J-2.2618
G2 X39.9649 Y56.4859 I5.3458 J10.0527
G1 X45.5249 Y56.47
G1 F800.0 X45.5271 Y57.27
G1 F1200.0 X48.2108 Y57.2623
G2 X48.8693 Y52.4364 I-7.5633 J-3.4899
G3 X50.9667 Y48.7327 I3.356 J-0.5453
G2 X52.4338 Y45.4747 I-0.9516 J-2.3879
G2 X50.8581 Y44.8824 I-1.7168 J2.1754
G2 X46.8275 Y47.2234 I0.9212 J6.2265
G1 X43.1167 Y53.0296
G3 X41.8482 Y54.2006 I-2.8649 J-1.831
G2 X37.6135 Y57.9333 I5.7214 J10.7591
G2 X37.8322 Y57.9472 I0.1176 J-0.1234
G3 X39.8367 Y57.2863 I2.0143 J2.7391
G1 X45.5271 Y57.27
G1 F800.0 X45.5294 Y58.07
G1 F1200.0 X48.7072 Y58.0609
G2 X49.659 Y52.3081 I-8.0597 J-4.2885
G3 X51.2628 Y49.4758 I2.5663 J-0.417
G2 X53.1023 Y44.9922 I-1.2478 J-3.131
G2 X50.817 Y44.0802 I-2.3853 J2.6579
G2 X46.1736 Y46.761 I0.9624 J7.0286
G1 X42.4426 Y52.5988
G3 X41.4726 Y53.4942 I-2.1908 J-1.4002
G2 X36.7619 Y57.7608 I6.097 J11.4654
G2 X38.3061 Y58.5917 I0.9693 J0.0491
G3 X39.839 Y58.0863 I1.5403 J2.0946
G1 X45.5294 Y58.07
G1 F800.0 X45.5317 Y58.87
G1 F1200.0 X49.175 Y58.8595
G2 X50.4486 Y52.1798 I-8.5275 J-5.0872
G3 X51.559 Y50.219 I1.7767 J-0.2887
G2 X53.7623 Y44.5142 I-1.5439 J-3.8742
G2 X50.772 Y43.2792 I-3.0454 J3.1359
G2 X45.5186 Y46.3003 I1.0073 J7.8297
G1 X41.7685 Y52.168
G3 X41.0969 Y52.7879 I-1.5167 J-0.9693
G2 X35.9926 Y57.4749 I6.4726 J12.1718
G2 X38.7801 Y59.2362 I1.7385 J0.3349
G3 X39.8413 Y58.8863 I1.0664 J1.4501
G1 X45.5317 Y58.87
G1 F800.0 X45.534 Y59.67
G1 F1200.0 X49.6187 Y59.6583
G2 X51.2383 Y52.0515 I-8.9712 J-5.8859
G3 X51.8551 Y50.9622 I0.9871 J-0.1604
G2 X54.4181 Y44.0385 I-1.8401 J-4.6174
G2 X50.7248 Y42.4788 I-3.7011 J3.6115
G2 X44.8627 Y45.8411 I1.0545 J8.63
G1 X41.0944 Y51.7371
G3 X40.7213 Y52.0815 I-0.8426 J-0.5385
G2 X35.244 Y57.1607 I6.8482 J12.8781
G2 X39.254 Y59.8807 I2.4872 J0.6491
G3 X39.8436 Y59.6863 I0.5924 J0.8056
G1 X45.534 Y59.67
G0 Z5.0
G0 X45.5191 Y54.47
G0 Z-1.0
G1 F800.0 Z-2.5
G1 F1200.0 X46.1332 Y54.4682
G2 X46.168 Y53.4547 I-5.4857 J-0.6959
G1 X45.5191 Y54.47
G1 F800.0 X45.5203 Y54.87
G1 F1200.0 X46.4752 Y54.8673
G2 X46.5004 Y52.8213 I-5.8277 J-1.0949
G3 X46.4389 Y52.288 I5.7249 J-0.9302
G1 X45.1389 Y54.3221
G3 X44.7401 Y54.8722 I-4.8871 J-3.1234
G1 X45.5203 Y54.87
G1 F800.0 X45.5226 Y55.67
G1 F1200.0 X47.1054 Y55.6654
G2 X47.2901 Y52.693 I-6.4579 J-1.8931
G3 X50.3743 Y47.2464 I4.9353 J-0.8019
G2 X50.9719 Y46.5069 I-0.3593 J-0.9016
G2 X50.9128 Y46.4953 I-0.255 J1.1432
G2 X48.131 Y48.155 I0.8665 J4.6136
G1 X44.4649 Y53.8912
G3 X42.5994 Y55.6132 I-4.213 J-2.6926
G2 X42.4782 Y55.6787 I4.9702 J9.3464
G1 X45.5226 Y55.67
G1 F800.0 X45.5249 Y56.47
G1 F1200.0 X47.6797 Y56.4638
G2 X48.0797 Y52.5647 I-7.0322 J-2.6914
G3 X50.6705 Y47.9895 I4.1456 J-0.6736
G2 X51.745 Y45.9681 I-0.6554 J-1.6447
G2 X50.8926 Y45.6867 I-1.0281 J1.6819
G2 X47.48 Y47.6879 I0.8867 J5.4222
G1 X43.7908 Y53.4604
G3 X42.2238 Y54.9069 I-3.539 J-2.2618
G2 X39.9649 Y56.4859 I5.3458 J10.0527
G1 X45.5249 Y56.47
G1 F800.0 X45.5271 Y57.27
G1 F1200.0 X48.2108 Y57.2623
G2 X48.8693 Y52.4364 I-7.5633 J-3.4899
G3 X50.9667 Y48.7327 I3.356 J-0.5453
G2 X52.4338 Y45.4747 I-0.9516 J-2.3879
G2 X50.8581 Y44.8824 I-1.7168 J2.1754
G2 X46.8275 Y47.2234 I0.9212 J6.2265
G1 X43.1167 Y53.0296
G3 X41.8482 Y54.2006 I-2.8649 J-1.831
G2 X37.6135 Y57.9333 I5.7214 J10.7591
G2 X37.8322 Y57.9472 I0.1176 J-0.1234
G3 X39.8367 Y57.2863 I2.0143 J2.7391
G1 X45.5271 Y57.27
G1 F800.0 X45.5294 Y58.07
G1 F1200.0 X48.7072 Y58.0609
G2 X49.659 Y52.3081 I-8.0597 J-4.2885
G3 X51.2628 Y49.4758 I2.5663 J-0.417
G2 X53.1023 Y44.9922 I-1.2478 J-3.131
G2 X50.817 Y44.0802 I-2.3853 J2.6579
G2 X46.1736 Y46.761 I0.9624 J7.0286
G1 X42.4426 Y52.5988
G3 X41.4726 Y53.4942 I-2.1908 J-1.4002
G2 X36.7619 Y57.7608 I6.097 J11.4654
G2 X38.3061 Y58.5917 I0.9693 J0.0491
G3 X39.839 Y58.0863 I1.5403 J2.0946
G1 X45.5294 Y58.07
G1 F800.0 X45.5317 Y58.87
G1 F1200.0 X49.175 Y58.8595
G2 X50.4486 Y52.1798 I-8.5275 J-5.0872
G3 X51.559 Y50.219 I1.7767 J-0.2887
G2 X53.7623 Y44.5142 I-1.5439 J-3.8742
G2 X50.772 Y43.2792 I-3.0454 J3.1359
G2 X45.5186 Y46.3003 I1.0073 J7.8297
G1 X41.7685 Y52.168
G3 X41.0969 Y52.7879 I-1.5167 J-0.9693
G2 X35.9926 Y57.4749 I6.4726 J12.1718
G2 X38.7801 Y59.2362 I1.7385 J0.3349
G3 X39.8413 Y58.8863 I1.0664 J1.4501
G1 X45.5317 Y58.87
G1 F800.0 X45.534 Y59.67
G1 F1200.0 X49.6187 Y59.6583
G2 X51.2383 Y52.0515 I-8.9712 J-5.8859
G3 X51.8551 Y50.9622 I0.9871 J-0.1604
G2 X54.4181 Y44.0385 I-1.8401 J-4.6174
G2 X50.7248 Y42.4788 I-3.7011 J3.6115
G2 X44.8627 Y45.8411 I1.0545 J8.63
G1 X41.0944 Y51.7371
G3 X40.7213 Y52.0815 I-0.8426 J-0.5385
G2 X35.244 Y57.1607 I6.8482 J12.8781
G2 X39.254 Y59.8807 I2.4872 J0.6491
G3 X39.8436 Y59.6863 I0.5924 J0.8056
G1 X45.534 Y59.67
G0 Z5.0
G0 X45.5191 Y54.47
G0 Z-1.5
G1 F800.0 Z-3.0
G1 F1200.0 X46.1332 Y54.4682
G2 X46.168 Y53.4547 I-5.4857 J-0.6959
G1 X45.5191 Y54.47
G1 F800.0 X45.5203 Y54.87
G1 F1200.0 X46.4752 Y54.8673
G2 X46.5004 Y52.8213 I-5.8277 J-1.0949
G3 X46.4389 Y52.288 I5.7249 J-0.9302
G1 X45.1389 Y54.3221
G3 X44.7401 Y54.8722 I-4.8871 J-3.1234
G1 X45.5203 Y54.87
G1 F800.0 X45.5226 Y55.67
G1 F1200.0 X47.1054 Y55.6654
G2 X47.2901 Y52.693 I-6.4579 J-1.8931
G3 X50.3743 Y47.2464 I4.9353 J-0.8019
G2 X50.9719 Y46.5069 I-0.3593 J-0.9016
G2 X50.9128 Y46.4953 I-0.255 J1.1432
G2 X48.131 Y48.155 I0.8665 J4.6136
G1 X44.4649 Y53.8912
G3 X42.5994 Y55.6132 I-4.213 J-2.6926
G2 X42.4782 Y55.6787 I4.9702 J9.3464
G1 X45.5226 Y55.67
G1 F800.0 X45.5249 Y56.47
G1 F1200.0 X47.6797 Y56.4638
G2 X48.0797 Y52.5647 I-7.0322 J-2.6914
G3 X50.6705 Y47.9895 I4.1456 J-0.6736
G2 X51.745 Y45.9681 I-0.6554 J-1.6447
G2 X50.8926 Y45.6867 I-1.0281 J1.6819
G2 X47.48 Y47.6879 I0.8867 J5.4222
G1 X43.7908 Y53.4604
G3 X42.2238 Y54.9069 I-3.539 J-2.2618
G2 X39.9649 Y56.4859 I5.3458 J10.0527
G1 X45.5249 Y56.47
G1 F800.0 X45.5271 Y57.27
G1 F1200.0 X48.2108 Y57.2623
G2 X48.8693 Y52.4364 I-7.5633 J-3.4899
G3 X50.9667 Y48.7327 I3.356 J-0.5453
G2 X52.4338 Y45.4747 I-0.9516 J-2.3879
G2 X50.8581 Y44.8824 I-1.7168 J2.1754
G2 X46.8275 Y47.2234 I0.9212 J6.2265
G1 X43.1167 Y53.0296
G3 X41.8482 Y54.2006 I-2.8649 J-1.831
G2 X37.6135 Y57.9333 I5.7214 J10.7591
G2 X37.8322 Y57.9472 I0.1176 J-0.1234
G3 X39.8367 Y57.2863 I2.0143 J2.7391
G1 X45.5271 Y57.27
G1 F800.0 X45.5294 Y58.07
G1 F1200.0 X48.7072 Y58.0609
G2 X49.659 Y52.3081 I-8.0597 J-4.2885
G3 X51.2628 Y49.4758 I2.5663 J-0.417
G2 X53.1023 Y44.9922 I-1.2478 J-3.131
G2 X50.817 Y44.0802 I-2.3853 J2.6579
G2 X46.1736 Y46.761 I0.9624 J7.0286
G1 X42.4426 Y52.5988
G3 X41.4726 Y53.4942 I-2.1908 J-1.4002
G2 X36.7619 Y57.7608 I6.097 J11.4654
G2 X38.3061 Y58.5917 I0.9693 J0.0491
G3 X39.839 Y58.0863 I1.5403 J2.0946
G1 X45.5294 Y58.07
G1 F800.0 X45.5317 Y58.87
G1 F1200.0 X49.175 Y58.8595
G2 X50.4486 Y52.1798 I-8.5275 J-5.0872
G3 X51.559 Y50.219 I1.7767 J-0.2887
G2 X53.7623 Y44.5142 I-1.5439 J-3.8742
G2 X50.772 Y43.2792 I-3.0454 J3.1359
G2 X45.5186 Y46.3003 I1.0073 J7.8297
G1 X41.7685 Y52.168
G3 X41.0969 Y52.7879 I-1.5167 J-0.9693
G2 X35.9926 Y57.4749 I6.4726 J12.1718
G2 X38.7801 Y59.2362 I1.7385 J0.3349
G3 X39.8413 Y58.8863 I1.0664 J1.4501
G1 X45.5317 Y58.87
G1 F800.0 X45.534 Y59.67
G1 F1200.0 X49.6187 Y59.6583
G2 X51.2383 Y52.0515 I-8.9712 J-5.8859
G3 X51.8551 Y50.9622 I0.9871 J-0.1604
G2 X54.4181 Y44.0385 I-1.8401 J-4.6174
G2 X50.7248 Y42.4788 I-3.7011 J3.6115
G2 X44.8627 Y45.8411 I1.0545 J8.63
G1 X41.0944 Y51.7371
G3 X40.7213 Y52.0815 I-0.8426 J-0.5385
G2 X35.244 Y57.1607 I6.8482 J12.8781
G2 X39.254 Y59.8807 I2.4872 J0.6491
G3 X39.8436 Y59.6863 I0.5924 J0.8056
G1 X45.534 Y59.67
G0 Z5.0
G0 X45.5191 Y54.47
G0 Z-2.0
G1 F800.0 Z-3.5
G1 F1200.0 X46.1332 Y54.4682
G2 X46.168 Y53.4547 I-5.4857 J-0.6959
G1 X45.5191 Y54.47
G1 F800.0 X45.5203 Y54.87
G1 F1200.0 X46.4752 Y54.8673
G2 X46.5004 Y52.8213 I-5.8277 J-1.0949
G3 X46.4389 Y52.288 I5.7249 J-0.9302
G1 X45.1389 Y54.3221
G3 X44.7401 Y54.8722 I-4.8871 J-3.1234
G1 X45.5203 Y54.87
G1 F800.0 X45.5226 Y55.67
G1 F1200.0 X47.1054 Y55.6654
G2 X47.2901 Y52.693 I-6.4579 J-1.8931
G3 X50.3743 Y47.2464 I4.9353 J-0.8019
G2 X50.9719 Y46.5069 I-0.3593 J-0.9016
G2 X50.9128 Y46.4953 I-0.255 J1.1432
G2 X48.131 Y48.155 I0.8665 J4.6136
G1 X44.4649 Y53.8912
G3 X42.5994 Y55.6132 I-4.213 J-2.6926
G2 X42.4782 Y55.6787 I4.9702 J9.3464
G1 X45.5226 Y55.67
G1 F800.0 X45.5249 Y56.47
G1 F1200.0 X47.6797 Y56.4638
G2 X48.0797 Y52.5647 I-7.0322 J-2.6914
G3 X50.6705 Y47.9895 I4.1456 J-0.6736
G2 X51.745 Y45.9681 I-0.6554 J-1.6447
G2 X50.8926 Y45.6867 I-1.0281 J1.6819
G2 X47.48 Y47.6879 I0.8867 J5.4222
G1 X43.7908 Y53.4604
G3 X42.2238 Y54.9069 I-3.539 J-2.2618
G2 X39.9649 Y56.4859 I5.3458 J10.0527
G1 X45.5249 Y56.47
G1 F800.0 X45.5271 Y57.27
G1 F1200.0 X48.2108 Y57.2623
G2 X48.8693 Y52.4364 I-7.5633 J-3.4899
G3 X50.9667 Y48.7327 I3.356 J-0.5453
G2 X52.4338 Y45.4747 I-0.9516 J-2.3879
G2 X50.8581 Y44.8824 I-1.7168 J2.1754
G2 X46.8275 Y47.2234 I0.9212 J6.2265
G1 X43.1167 Y53.0296
G3 X41.8482 Y54.2006 I-2.8649 J-1.831
G2 X37.6135 Y57.9333 I5.7214 J10.7591
G2 X37.8322 Y57.9472 I0.1176 J-0.1234
G3 X39.8367 Y57.2863 I2.0143 J2.7391
G1 X45.5271 Y57.27
G1 F800.0 X45.5294 Y58.07
G1 F1200.0 X48.7072 Y58.0609
G2 X49.659 Y52.3081 I-8.0597 J-4.2885
G3 X51.2628 Y49.4758 I2.5663 J-0.417
G2 X53.1023 Y44.9922 I-1.2478 J-3.131
G2 X50.817 Y44.0802 I-2.3853 J2.6579
G2 X46.1736 Y46.761 I0.9624 J7.0286
G1 X42.4426 Y52.5988
G3 X41.4726 Y53.4942 I-2.1908 J-1.4002
G2 X36.7619 Y57.7608 I6.097 J11.4654
G2 X38.3061 Y58.5917 I0.9693 J0.0491
G3 X39.839 Y58.0863 I1.5403 J2.0946
G1 X45.5294 Y58.07
G1 F800.0 X45.5317 Y58.87
G1 F1200.0 X49.175 Y58.8595
G2 X50.4486 Y52.1798 I-8.5275 J-5.0872
G3 X51.559 Y50.219 I1.7767 J-0.2887
G2 X53.7623 Y44.5142 I-1.5439 J-3.8742
G2 X50.772 Y43.2792 I-3.0454 J3.1359
G2 X45.5186 Y46.3003 I1.0073 J7.8297
G1 X41.7685 Y52.168
G3 X41.0969 Y52.7879 I-1.5167 J-0.9693
G2 X35.9926 Y57.4749 I6.4726 J12.1718
G2 X38.7801 Y59.2362 I1.7385 J0.3349
G3 X39.8413 Y58.8863 I1.0664 J1.4501
G1 X45.5317 Y58.87
G1 F800.0 X45.534 Y59.67
G1 F1200.0 X49.6187 Y59.6583
G2 X51.2383 Y52.0515 I-8.9712 J-5.8859
G3 X51.8551 Y50.9622 I0.9871 J-0.1604
G2 X54.4181 Y44.0385 I-1.8401 J-4.6174
G2 X50.7248 Y42.4788 I-3.7011 J3.6115
G2 X44.8627 Y45.8411 I1.0545 J8.63
G1 X41.0944 Y51.7371
G3 X40.7213 Y52.0815 I-0.8426 J-0.5385
G2 X35.244 Y57.1607 I6.8482 J12.8781
G2 X39.254 Y59.8807 I2.4872 J0.6491
G3 X39.8436 Y59.6863 I0.5924 J0.8056
G1 X45.534 Y59.67
G0 Z5.0
G0 X45.5191 Y54.47
G0 Z-2.5
G1 F800.0 Z-4.0
G1 F1200.0 X46.1332 Y54.4682
G2 X46.168 Y53.4547 I-5.4857 J-0.6959
G1 X45.5191 Y54.47
G1 F800.0 X45.5203 Y54.87
G1 F1200.0 X46.4752 Y54.8673
G2 X46.5004 Y52.8213 I-5.8277 J-1.0949
G3 X46.4389 Y52.288 I5.7249 J-0.9302
G1 X45.1389 Y54.3221
G3 X44.7401 Y54.8722 I-4.8871 J-3.1234
G1 X45.5203 Y54.87
G1 F800.0 X45.5226 Y55.67
G1 F1200.0 X47.1054 Y55.6654
G2 X47.2901 Y52.693 I-6.4579 J-1.8931
G3 X50.3743 Y47.2464 I4.9353 J-0.8019
G2 X50.9719 Y46.5069 I-0.3593 J-0.9016
G2 X50.9128 Y46.4953 I-0.255 J1.1432
G2 X48.131 Y48.155 I0.8665 J4.6136
G1 X44.4649 Y53.8912
G3 X42.5994 Y55.6132 I-4.213 J-2.6926
G2 X42.4782 Y55.6787 I4.9702 J9.3464
G1 X45.5226 Y55.67
G1 F800.0 X45.5249 Y56.47
G1 F1200.0 X47.6797 Y56.4638
G2 X48.0797 Y52.5647 I-7.0322 J-2.6914
G3 X50.6705 Y47.9895 I4.1456 J-0.6736
G2 X51.745 Y45.9681 I-0.6554 J-1.6447
G2 X50.8926 Y45.6867 I-1.0281 J1.6819
G2 X47.48 Y47.6879 I0.8867 J5.4222
G1 X43.7908 Y53.4604
G3 X42.2238 Y54.9069 I-3.539 J-2.2618
G2 X39.9649 Y56.4859 I5.3458 J10.0527
G1 X45.5249 Y56.47
G1 F800.0 X45.5271 Y57.27
G1 F1200.0 X48.2108 Y57.2623
G2 X48.8693 Y52.4364 I-7.5633 J-3.4899
G3 X50.9667 Y48.7327 I3.356 J-0.5453
G2 X52.4338 Y45.4747 I-0.9516 J-2.3879
G2 X50.8581 Y44.8824 I-1.7168 J2.1754
G2 X46.8275 Y47.2234 I0.9212 J6.2265
G1 X43.1167 Y53.0296
G3 X41.8482 Y54.2006 I-2.8649 J-1.831
G2 X37.6135 Y57.9333 I5.7214 J10.7591
G2 X37.8322 Y57.9472 I0.1176 J-0.1234
G3 X39.8367 Y57.2863 I2.0143 J2.7391
G1 X45.5271 Y57.27
G1 F800.0 X45.5294 Y58.07
G1 F1200.0 X48.7072 Y58.0609
G2 X49.659 Y52.3081 I-8.0597 J-4.2885
G3 X51.2628 Y49.4758 I2.5663 J-0.417
G2 X53.1023 Y44.9922 I-1.2478 J-3.131
G2 X50.817 Y44.0802 I-2.3853 J2.6579
G2 X46.1736 Y46.761 I0.9624 J7.0286
G1 X42.4426 Y52.5988
G3 X41.4726 Y53.4942 I-2.1908 J-1.4002
G2 X36.7619 Y57.7608 I6.097 J11.4654
G2 X38.3061 Y58.5917 I0.9693 J0.0491
G3 X39.839 Y58.0863 I1.5403 J2.0946
G1 X45.5294 Y58.07
G1 F800.0 X45.5317 Y58.87
G1 F1200.0 X49.175 Y58.8595
G2 X50.4486 Y52.1798 I-8.5275 J-5.0872
G3 X51.559 Y50.219 I1.7767 J-0.2887
G2 X53.7623 Y44.5142 I-1.5439 J-3.8742
G2 X50.772 Y43.2792 I-3.0454 J3.1359
G2 X45.5186 Y46.3003 I1.0073 J7.8297
G1 X41.7685 Y52.168
G3 X41.0969 Y52.7879 I-1.5167 J-0.9693
G2 X35.9926 Y57.4749 I6.4726 J12.1718
G2 X38.7801 Y59.2362 I1.7385 J0.3349
G3 X39.8413 Y58.8863 I1.0664 J1.4501
G1 X45.5317 Y58.87
G1 F800.0 X45.534 Y59.67
G1 F1200.0 X49.6187 Y59.6583
G2 X51.2383 Y52.0515 I-8.9712 J-5.8859
G3 X51.8551 Y50.9622 I0.9871 J-0.1604
G2 X54.4181 Y44.0385 I-1.8401 J-4.6174
G2 X50.7248 Y42.4788 I-3.7011 J3.6115
G2 X44.8627 Y45.8411 I1.0545 J8.63
G1 X41.0944 Y51.7371
G3 X40.7213 Y52.0815 I-0.8426 J-0.5385
G2 X35.244 Y57.1607 I6.8482 J12.8781
G2 X39.254 Y59.8807 I2.4872 J0.6491
G3 X39.8436 Y59.6863 I0.5924 J0.8056
G1 X45.534 Y59.67
G0 Z5.0
G0 X45.5191 Y54.47
G0 Z-3.0
G1 F800.0 Z-4.3
G1 F1200.0 X46.1332 Y54.4682
G2 X46.168 Y53.4547 I-5.4857 J-0.6959
G1 X45.5191 Y54.47
G1 F800.0 X45.5203 Y54.87
G1 F1200.0 X46.4752 Y54.8673
G2 X46.5004 Y52.8213 I-5.8277 J-1.0949
G3 X46.4389 Y52.288 I5.7249 J-0.9302
G1 X45.1389 Y54.3221
G3 X44.7401 Y54.8722 I-4.8871 J-3.1234
G1 X45.5203 Y54.87
G1 F800.0 X45.5226 Y55.67
G1 F1200.0 X47.1054 Y55.6654
G2 X47.2901 Y52.693 I-6.4579 J-1.8931
G3 X50.3743 Y47.2464 I4.9353 J-0.8019
G2 X50.9719 Y46.5069 I-0.3593 J-0.9016
G2 X50.9128 Y46.4953 I-0.255 J1.1432
G2 X48.131 Y48.155 I0.8665 J4.6136
G1 X44.4649 Y53.8912
G3 X42.5994 Y55.6132 I-4.213 J-2.6926
G2 X42.4782 Y55.6787 I4.9702 J9.3464
G1 X45.5226 Y55.67
G1 F800.0 X45.5249 Y56.47
G1 F1200.0 X47.6797 Y56.4638
G2 X48.0797 Y52.5647 I-7.0322 J-2.6914
G3 X50.6705 Y47.9895 I4.1456 J-0.6736
G2 X51.745 Y45.9681 I-0.6554 J-1.6447
G2 X50.8926 Y45.6867 I-1.0281 J1.6819
G2 X47.48 Y47.6879 I0.8867 J5.4222
G1 X43.7908 Y53.4604
G3 X42.2238 Y54.9069 I-3.539 J-2.2618
G2 X39.9649 Y56.4859 I5.3458 J10.0527
G1 X45.5249 Y56.47
G1 F800.0 X45.5271 Y57.27
G1 F1200.0 X48.2108 Y57.2623
G2 X48.8693 Y52.4364 I-7.5633 J-3.4899
G3 X50.9667 Y48.7327 I3.356 J-0.5453
G2 X52.4338 Y45.4747 I-0.9516 J-2.3879
G2 X50.8581 Y44.8824 I-1.7168 J2.1754
G2 X46.8275 Y47.2234 I0.9212 J6.2265
G1 X43.1167 Y53.0296
G3 X41.8482 Y54.2006 I-2.8649 J-1.831
G2 X37.6135 Y57.9333 I5.7214 J10.7591
G2 X37.8322 Y57.9472 I0.1176 J-0.1234
G3 X39.8367 Y57.2863 I2.0143 J2.7391
G1 X45.5271 Y57.27
G1 F800.0 X45.5294 Y58.07
G1 F1200.0 X48.7072 Y58.0609
G2 X49.659 Y52.3081 I-8.0597 J-4.2885
G3 X51.2628 Y49.4758 I2.5663 J-0.417
G2 X53.1023 Y44.9922 I-1.2478 J-3.131
G2 X50.817 Y44.0802 I-2.3853 J2.6579
G2 X46.1736 Y46.761 I0.9624 J7.0286
G1 X42.4426 Y52.5988
G3 X41.4726 Y53.4942 I-2.1908 J-1.4002
G2 X36.7619 Y57.7608 I6.097 J11.4654
G2 X38.3061 Y58.5917 I0.9693 J0.0491
G3 X39.839 Y58.0863 I1.5403 J2.0946
G1 X45.5294 Y58.07
G1 F800.0 X45.5317 Y58.87
G1 F1200.0 X49.175 Y58.8595
G2 X50.4486 Y52.1798 I-8.5275 J-5.0872
G3 X51.559 Y50.219 I1.7767 J-0.2887
G2 X53.7623 Y44.5142 I-1.5439 J-3.8742
G2 X50.772 Y43.2792 I-3.0454 J3.1359
G2 X45.5186 Y46.3003 I1.0073 J7.8297
G1 X41.7685 Y52.168
G3 X41.0969 Y52.7879 I-1.5167 J-0.9693
G2 X35.9926 Y57.4749 I6.4726 J12.1718
G2 X38.7801 Y59.2362 I1.7385 J0.3349
G3 X39.8413 Y58.8863 I1.0664 J1.4501
G1 X45.5317 Y58.87
G1 F800.0 X45.534 Y59.67
G1 F1200.0 X49.6187 Y59.6583
G2 X51.2383 Y52.0515 I-8.9712 J-5.8859
G3 X51.8551 Y50.9622 I0.9871 J-0.1604
G2 X54.4181 Y44.0385 I-1.8401 J-4.6174
G2 X50.7248 Y42.4788 I-3.7011 J3.6115
G2 X44.8627 Y45.8411 I1.0545 J8.63
G1 X41.0944 Y51.7371
G3 X40.7213 Y52.0815 I-0.8426 J-0.5385
G2 X35.244 Y57.1607 I6.8482 J12.8781
G2 X39.254 Y59.8807 I2.4872 J0.6491
G3 X39.8436 Y59.6863 I0.5924 J0.8056
G1 X45.534 Y59.67
( bones )
S12000
G0 Z5.0
G0 X349.3874 Y152.4417
G0 Z1.0
G1 F800.0 Z-0.5
G2 F1200.0 X350.253 Y155.0914 I3.1448 J0.439
G3 X350.4648 Y155.4192 I-0.7178 J0.6962
G3 Y161.1872 I-7.2765 J2.884
G3 X350.3557 Y161.3903 I-0.9296 J-0.3685
G1 X346.0684 Y167.5449
G2 X342.6555 Y177.6157 I24.2484 J13.8313
G3 X342.6549 Y177.6197 I-0.9909 J-0.1347
G2 X342.729 Y186.13 I28.606 J4.0066
G3 X344.2003 Y194.9849 I-30.5158 J9.6201
G3 X344.181 Y195.2058 I-0.9997 J0.0239
G3 X339.9405 Y200.9393 I-8.2336 J-1.6546
G2 X339.1333 Y203.0524 I1.0011 J1.5931
G3 X341.5448 Y215.112 I-9.0457 J8.0797
G2 X339.6292 Y228.7311 I38.1144 J12.3051
G3 X339.6296 Y228.7809 I-0.9995 J0.0328
G2 X341.4478 Y244.3694 I59.1323 J1.0032
G3 X341.4482 Y244.371 I-0.9691 J0.2466
G2 X347.1603 Y258.9837 I60.95 J-15.4024
G1 X350.4733 Y264.3807
G3 X352.584 Y269.9117 I-8.1633 J6.2834
G3 X352.5849 Y269.9264 I-0.9973 J0.073
G3 X350.6952 Y275.4694 I-7.7469 J0.4525
G3 X350.5924 Y275.5716 I-0.7548 J-0.656
G1 X346.3193 Y279.2462
G2 X344.6096 Y289.1393 I7.9247 J6.4638
G1 X345.6996 Y291.2652
G3 X347.5238 Y295.6773 I-4.949 J4.6293
G3 X347.1085 Y303.5924 I-16.4783 J3.104
G3 X347.1037 Y303.6082 I-0.958 J-0.2869
G3 X337.4927 Y313.9249 I-15.6942 J-4.9855
G3 X337.4789 Y313.9303 I-0.3694 J-0.9293
G3 X329.5602 Y314.9738 I-6.1629 J-16.2002
G3 X329.4432 Y314.9548 I0.1013 J-0.9949
G1 X326.5584 Y314.3094
G1 X313.496 Y313.9667
G2 X296.2032 Y315.9111 I3.6238 J110.0971
G1 X287.6584 Y317.9031
G3 X287.5041 Y317.9265 I-0.227 J-0.9739
G1 X284.322 Y318.1586
G3 X284.0811 Y318.147 I-0.0727 J-0.9974
G3 X278.8061 Y309.6802 I1.122 J-6.5756
G3 X282.3914 Y305.5169 I6.25 J1.7569
G3 X282.4235 Y305.5031 I0.4105 J0.9119
G3 X287.9683 Y305.0151 I3.5608 J8.714
G2 X296.5528 Y298.6849 I-0.8504 J-10.1391
G3 X297.4942 Y298.0594 I0.9273 J0.3744
G1 X317.3754 Y298.34
G1 X317.3895 Y296.643
G1 X298.2558 Y296.5029
G3 X297.2865 Y295.2879 I0.0073 J-1.0
G1 X297.3263 Y295.1069
G3 X294.9464 Y285.8055 I43.2219 J-16.0147
G3 X294.9867 Y285.3447 I0.9893 J-0.1456
G3 X301.5371 Y280.991 I6.0596 J2.0123
G3 X301.7765 Y281.0393 I-0.0769 J0.997
G1 X306.5399 Y282.6271
G2 X316.3903 Y283.7095 I7.7152 J-24.8494
G3 X316.3967 Y283.709 I0.0821 J0.9966
G2 X322.9259 Y282.1808 I-1.6512 J-21.7672
G2 X324.744 Y280.1315 I-2.0221 J-3.625
G3 X324.7527 Y280.1109 I0.9251 J0.3796
G2 X322.7062 Y274.7384 I-3.762 J-1.643
G3 X322.3575 Y274.4719 I0.4179 J-0.9085
G3 X319.6992 Y266.2999 I8.8222 J-7.3881
G3 X319.7315 Y266.1075 I0.9977 J0.0681
G1 X320.7702 Y262.2587
G3 X320.8539 Y262.0476 I0.9655 J0.2606
G2 X324.2933 Y253.111 I-34.1908 J-18.2892
G3 X324.2993 Y253.0878 I0.9705 J0.2412
G2 X320.6915 Y215.2864 I-51.6119 J-14.1469
G3 X316.1393 Y205.9789 I6.6952 J-9.0415
G3 X316.144 Y205.903 I0.9997 J0.0236
G3 X318.223 Y201.2737 I7.9683 J0.7969
G3 X318.3089 Y201.1909 I0.7354 J0.6776
G1 X321.7515 Y198.2501
G2 X321.7838 Y197.0325 I-1.3953 J-0.6462
G3 X319.2235 Y192.5136 I9.9349 J-8.6135
G3 X319.21 Y192.4686 I0.9503 J-0.3114
G3 X322.3694 Y182.9949 I8.6301 J-2.3856
G3 X322.4358 Y182.9478 I0.611 J0.7916
G2 X331.4124 Y170.6008 I-11.6073 J-17.8755
G2 X332.0513 Y163.528 I-21.3508 J-5.4937
G1 X331.0723 Y156.504
G3 X331.0735 Y156.2195 I0.9904 J-0.138
G3 X333.5159 Y151.5325 I7.9881 J1.1827
G3 X333.7276 Y151.3794 I0.6868 J0.7269
G2 X336.6915 Y148.4003 I-3.4579 J-6.4041
G2 X336.6051 Y146.9484 I-1.4198 J-0.6441
G1 X333.3061 Y144.2367
G3 X332.9421 Y143.5101 I0.635 J-0.7725
G1 X332.7825 Y140.0402
G1 X331.7706 Y138.5981
G1 X329.3175 Y137.1159
G3 X329.1217 Y136.9613 I0.5171 J-0.8559
G3 X333.8133 Y129.3222 I3.2921 J-3.2384
G3 X333.8188 Y129.324 I-0.3031 J0.953
G1 X349.2026 Y134.3146
G3 X353.4438 Y138.3756 I-1.449 J5.7585
G3 X353.4829 Y138.7342 I-0.9583 J0.2859
G1 X353.2286 Y142.2205
G1 X353.3747 Y143.3461
G3 X353.9542 Y148.8603 I-3.4261 J3.1476
G3 X353.8967 Y148.947 I-0.861 J-0.5087
G3 X349.4259 Y152.3793 I-8.2404 J-6.1057
G1 X349.3874 Y152.4417
G1 F800.0 Z-1.0
G2 F1200.0 X350.253 Y155.0914 I3.1448 J0.439
G3 X350.4648 Y155.4192 I-0.7178 J0.6962
G3 Y161.1872 I-7.2765 J2.884
G3 X350.3557 Y161.3903 I-0.9296 J-0.3685
G1 X346.0684 Y167.5449
G2 X342.6555 Y177.6157 I24.2484 J13.8313
G3 X342.6549 Y177.6197 I-0.9909 J-0.1347
G2 X342.729 Y186.13 I28.606 J4.0066
G3 X344.2003 Y194.9849 I-30.5158 J9.6201
G3 X344.181 Y195.2058 I-0.9997 J0.0239
G3 X339.9405 Y200.9393 I-8.2336 J-1.6546
G2 X339.1333 Y203.0524 I1.0011 J1.5931
G3 X341.5448 Y215.112 I-9.0457 J8.0797
G2 X339.6292 Y228.7311 I38.1144 J12.3051
G3 X339.6296 Y228.7809 I-0.9995 J0.0328
G2 X341.4478 Y244.3694 I59.1323 J1.0032
G3 X341.4482 Y244.371 I-0.9691 J0.2466
G2 X347.1603 Y258.9837 I60.95 J-15.4024
G1 X350.4733 Y264.3807
G3 X352.584 Y269.9117 I-8.1633 J6.2834
G3 X352.5849 Y269.9264 I-0.9973 J0.073
G3 X350.6952 Y275.4694 I-7.7469 J0.4525
G3 X350.5924 Y275.5716 I-0.7548 J-0.656
G1 X346.3193 Y279.2462
G2 X344.6096 Y289.1393 I7.9247 J6.4638
G1 X345.6996 Y291.2652
G3 X347.5238 Y295.6773 I-4.949 J4.6293
G3 X347.1085 Y303.5924 I-16.4783 J3.104
G3 X347.1037 Y303.6082 I-0.958 J-0.2869
G3 X337.4927 Y313.9249 I-15.6942 J-4.9855
G3 X337.4789 Y313.9303 I-0.3694 J-0.9293
G3 X329.5602 Y314.9738 I-6.1629 J-16.2002
G3 X329.4432 Y314.9548 I0.1013 J-0.9949
G1 X326.5584 Y314.3094
G1 X313.496 Y313.9667
G2 X296.2032 Y315.9111 I3.6238 J110.0971
G1 X287.6584 Y317.9031
G3 X287.5041 Y317.9265 I-0.227 J-0.9739
G1 X284.322 Y318.1586
G3 X284.0811 Y318.147 I-0.0727 J-0.9974
G3 X278.8061 Y309.6802 I1.122 J-6.5756
G3 X282.3914 Y305.5169 I6.25 J1.7569
G3 X282.4235 Y305.5031 I0.4105 J0.9119
G3 X287.9683 Y305.0151 I3.5608 J8.714
G2 X296.5528 Y298.6849 I-0.8504 J-10.1391
G3 X297.4942 Y298.0594 I0.9273 J0.3744
G1 X317.3754 Y298.34
G1 X317.3895 Y296.643
G1 X298.2558 Y296.5029
G3 X297.2865 Y295.2879 I0.0073 J-1.0
G1 X297.3263 Y295.1069
G3 X294.9464 Y285.8055 I43.2219 J-16.0147
G3 X294.9867 Y285.3447 I0.9893 J-0.1456
G3 X301.5371 Y280.991 I6.0596 J2.0123
G3 X301.7765 Y281.0393 I-0.0769 J0.997
G1 X306.5399 Y282.6271
G2 X316.3903 Y283.7095 I7.7152 J-24.8494
G3 X316.3967 Y283.709 I0.0821 J0.9966
G2 X322.9259 Y282.1808 I-1.6512 J-21.7672
G2 X324.744 Y280.1315 I-2.0221 J-3.625
G3 X324.7527 Y280.1109 I0.9251 J0.3796
G2 X322.7062 Y274.7384 I-3.762 J-1.643
G3 X322.3575 Y274.4719 I0.4179 J-0.9085
G3 X319.6992 Y266.2999 I8.8222 J-7.3881
G3 X319.7315 Y266.1075 I0.9977 J0.0681
G1 X320.7702 Y262.2587
G3 X320.8539 Y262.0476 I0.9655 J0.2606
G2 X324.2933 Y253.111 I-34.1908 J-18.2892
G3 X324.2993 Y253.0878 I0.9705 J0.2412
G2 X320.6915 Y215.2864 I-51.6119 J-14.1469
G3 X316.1393 Y205.9789 I6.6952 J-9.0415
G3 X316.144 Y205.903 I0.9997 J0.0236
G3 X318.223 Y201.2737 I7.9683 J0.7969
G3 X318.3089 Y201.1909 I0.7354 J0.6776
G1 X321.7515 Y198.2501
G2 X321.7838 Y197.0325 I-1.3953 J-0.6462
G3 X319.2235 Y192.5136 I9.9349 J-8.6135
G3 X319.21 Y192.4686 I0.9503 J-0.3114
G3 X322.3694 Y182.9949 I8.6301 J-2.3856
G3 X322.4358 Y182.9478 I0.611 J0.7916
G2 X331.4124 Y170.6008 I-11.6073 J-17.8755
G2 X332.0513 Y163.528 I-21.3508 J-5.4937
G1 X331.0723 Y156.504
G3 X331.0735 Y156.2195 I0.9904 J-0.138
G3 X333.5159 Y151.5325 I7.9881 J1.1827
G3 X333.7276 Y151.3794 I0.6868 J0.7269
G2 X336.6915 Y148.4003 I-3.4579 J-6.4041
G2 X336.6051 Y146.9484 I-1.4198 J-0.6441
G1 X333.3061 Y144.2367
G3 X332.9421 Y143.5101 I0.635 J-0.7725
G1 X332.7825 Y140.0402
G1 X331.7706 Y138.5981
G1 X329.3175 Y137.1159
G3 X329.1217 Y136.9613 I0.5171 J-0.8559
G3 X333.8133 Y129.3222 I3.2921 J-3.2384
G3 X333.8188 Y129.324 I-0.3031 J0.953
G1 X349.2026 Y134.3146
G3 X353.4438 Y138.3756 I-1.449 J5.7585
G3 X353.4829 Y138.7342 I-0.9583 J0.2859
G1 X353.2286 Y142.2205
G1 X353.3747 Y143.3461
G3 X353.9542 Y148.8603 I-3.4261 J3.1476
G3 X353.8967 Y148.947 I-0.861 J-0.5087
G3 X349.4259 Y152.3793 I-8.2404 J-6.1057
G1 X349.3874 Y152.4417
G1 F800.0 Z-1.5
G2 F1200.0 X350.253 Y155.0914 I3.1448 J0.439
G3 X350.4648 Y155.4192 I-0.7178 J0.6962
G3 Y161.1872 I-7.2765 J2.884
G3 X350.3557 Y161.3903 I-0.9296 J-0.3685
G1 X346.0684 Y167.5449
G2 X342.6555 Y177.6157 I24.2484 J13.8313
G3 X342.6549 Y177.6197 I-0.9909 J-0.1347
G2 X342.729 Y186.13 I28.606 J4.0066
G3 X344.1207 Y193.3694 I-30.5158 J9.6201
G3 X344.2003 Y194.9849 Z-1.3383 I-31.9076 J2.3808
G3 X344.181 Y195.2058 Z-1.3163 I-0.9997 J0.0239
G3 X344.1164 Y195.4996 Z-1.3 I-8.2336 J-1.6546
G3 X343.4241 Y197.376 I-8.169 J-1.9484
G3 X342.2679 Y199.0812 Z-1.5 I-7.4767 J-3.8248
G3 X339.9405 Y200.9393 I-6.3205 J-5.53
G2 X339.1333 Y203.0524 I1.0011 J1.5931
G3 X341.5448 Y215.112 I-9.0457 J8.0797
G2 X339.6292 Y228.7311 I38.1144 J12.3051
G3 X339.6296 Y228.7809 I-0.9995 J0.0328
G2 X341.4478 Y244.3694 I59.1323 J1.0032
G3 X341.4482 Y244.371 I-0.9691 J0.2466
G2 X347.1603 Y258.9837 I60.95 J-15.4024
G1 X350.4733 Y264.3807
G3 X352.584 Y269.9117 I-8.1633 J6.2834
G3 X352.5849 Y269.9264 I-0.9973 J0.073
G3 X350.6952 Y275.4694 I-7.7469 J0.4525
G3 X350.5924 Y275.5716 I-0.7548 J-0.656
G1 X346.6705 Y278.9442
G1 X346.3193 Y279.2462 Z-1.4537
G2 X345.406 Y280.565 Z-1.3 I7.9247 J6.4638
G2 X344.5736 Y282.3835 I8.838 J5.145
G2 X344.1058 Y284.3689 Z-1.5 I9.6703 J3.3265
G2 X344.6096 Y289.1393 I10.1382 J1.3411
G1 X345.6996 Y291.2652
G3 X347.5238 Y295.6773 I-4.949 J4.6293
G3 X347.1085 Y303.5924 I-16.4783 J3.104
G3 X347.1037 Y303.6082 I-0.958 J-0.2869
G3 X337.4927 Y313.9249 I-15.6942 J-4.9855
G3 X337.4789 Y313.9303 I-0.3694 J-0.9293
G3 X329.5602 Y314.9738 I-6.1629 J-16.2002
G3 X329.4432 Y314.9548 I0.1013 J-0.9949
G1 X326.5584 Y314.3094
G1 X313.496 Y313.9667
G2 X296.2032 Y315.9111 I3.6238 J110.0971
G1 X287.6584 Y317.9031
G3 X287.5041 Y317.9265 I-0.227 J-0.9739
G1 X284.322 Y318.1586
G3 X284.0811 Y318.147 I-0.0727 J-0.9974
G3 X283.7047 Y318.0716 I1.122 J-6.5756
G3 X281.7589 Y317.2841 Z-1.3 I1.4983 J-6.5002
G3 X280.2203 Y316.0064 I3.4441 J-5.7127
G3 X279.0888 Y314.2384 Z-1.5 I4.9828 J-4.435
G3 X278.8061 Y309.6802 I6.1143 J-2.667
G3 X282.3914 Y305.5169 I6.25 J1.7569
G3 X282.4235 Y305.5031 I0.4105 J0.9119
G3 X287.9683 Y305.0151 I3.5608 J8.714
G2 X296.5528 Y298.6849 I-0.8504 J-10.1391
G3 X297.4942 Y298.0594 I0.9273 J0.3744
G1 X317.3754 Y298.34
G1 X317.3895 Y296.643
G1 X298.2558 Y296.5029
G3 X297.2865 Y295.2879 I0.0073 J-1.0
G1 X297.3263 Y295.1069
G3 X294.9464 Y285.8055 I43.2219 J-16.0147
G3 X294.9867 Y285.3447 I0.9893 J-0.1456
G3 X301.0076 Y280.9722 I6.0596 J2.0123
G3 X301.5371 Y280.991 Z-1.447 I0.0387 J6.3849
G3 X301.7765 Y281.0393 Z-1.4228 I-0.0769 J0.997
G1 X302.9617 Y281.4344 Z-1.3
G1 X304.8591 Y282.0668
G1 X306.5399 Y282.6271 Z-1.4772
G2 X306.7582 Y282.6939 Z-1.5 I7.7152 J-24.8494
G2 X316.3903 Y283.7095 I7.4968 J-24.9162
G3 X316.3967 Y283.709 I0.0821 J0.9966
G2 X322.9259 Y282.1808 I-1.6512 J-21.7672
G2 X324.744 Y280.1315 I-2.0221 J-3.625
G3 X324.7527 Y280.1109 I0.9251 J0.3796
G2 X322.7062 Y274.7384 I-3.762 J-1.643
G3 X322.3575 Y274.4719 I0.4179 J-0.9085
G3 X319.6992 Y266.2999 I8.8222 J-7.3881
G3 X319.7315 Y266.1075 I0.9977 J0.0681
G1 X320.7702 Y262.2587
G3 X320.8539 Y262.0476 I0.9655 J0.2606
G2 X324.2933 Y253.111 I-34.1908 J-18.2892
G3 X324.2993 Y253.0878 I0.9705 J0.2412
G2 X322.2204 Y218.6824 I-51.6119 J-14.1469
G2 X321.2895 Y216.5408 Z-1.3 I-49.533 J20.2585
G2 X320.6915 Y215.2864 I-48.602 J22.4001
G3 X320.076 Y214.7964 I6.6952 J-9.0415
G3 X318.6566 Y213.3414 Z-1.5 I7.3106 J-8.5515
G3 X316.1393 Y205.9789 I8.73 J-7.0965
G3 X316.144 Y205.903 I0.9997 J0.0236
G3 X318.223 Y201.2737 I7.9683 J0.7969
G3 X318.3089 Y201.1909 I0.7354 J0.6776
G1 X321.7515 Y198.2501
G2 X321.7838 Y197.0325 I-1.3953 J-0.6462
G3 X319.2235 Y192.5136 I9.9349 J-8.6135
G3 X319.21 Y192.4686 I0.9503 J-0.3114
G3 X322.3694 Y182.9949 I8.6301 J-2.3856
G3 X322.4358 Y182.9478 I0.611 J0.7916
G2 X331.4124 Y170.6008 I-11.6073 J-17.8755
G2 X332.0513 Y163.528 I-21.3508 J-5.4937
G1 X331.0723 Y156.504
G3 X331.0735 Y156.2195 I0.9904 J-0.138
G3 X333.5159 Y151.5325 I7.9881 J1.1827
G3 X333.7276 Y151.3794 I0.6868 J0.7269
G2 X336.6915 Y148.4003 I-3.4579 J-6.4041
G2 X336.6051 Y146.9484 I-1.4198 J-0.6441
G1 X333.3061 Y144.2367
G3 X332.9421 Y143.5101 I0.635 J-0.7725
G1 X332.7825 Y140.0402
G1 X331.7706 Y138.5981
G1 X331.3031 Y138.3157
G1 X329.4586 Y137.2012 Z-1.3
G1 X329.3175 Y137.1159
G3 X329.1217 Y136.9613 I0.5171 J-0.8559
G3 X328.2112 Y135.6369 I3.2921 J-3.2384
G3 X327.8047 Y133.4391 Z-1.5 I4.2026 J-1.9139
G3 X333.8133 Y129.3222 I4.6092 J0.2838
G3 X333.8188 Y129.324 I-0.3031 J0.953
G1 X349.2026 Y134.3146
G3 X353.4438 Y138.3756 I-1.449 J5.7585
G3 X353.4829 Y138.7342 I-0.9583 J0.2859
G1 X353.2286 Y142.2205
G1 X353.3747 Y143.3461
G3 X353.9542 Y148.8603 I-3.4261 J3.1476
G3 X353.8967 Y148.947 I-0.861 J-0.5087
G3 X349.4259 Y152.3793 I-8.2404 J-6.1057
G1 X349.3874 Y152.4417
G1 F800.0 Z-2.0
G2 F1200.0 X350.253 Y155.0914 I3.1448 J0.439
G3 X350.4648 Y155.4192 I-0.7178 J0.6962
G3 Y161.1872 I-7.2765 J2.884
G3 X350.3557 Y161.3903 I-0.9296 J-0.3685
G1 X346.0684 Y167.5449
G2 X342.6555 Y177.6157 I24.2484 J13.8313
G3 X342.6549 Y177.6197 I-0.9909 J-0.1347
G2 X342.729 Y186.13 I28.606 J4.0066
G3 X344.1207 Y193.3694 I-30.5158 J9.6201
G3 X344.2003 Y194.9849 Z-1.4339 I-31.9076 J2.3808
G3 X344.181 Y195.2058 Z-1.3569 I-0.9997 J0.0239
G3 X344.1164 Y195.4996 Z-1.3 I-8.2336 J-1.6546
G3 X343.4241 Y197.376 I-8.169 J-1.9484
G3 X342.2679 Y199.0812 Z-2.0 I-7.4767 J-3.8248
G3 X339.9405 Y200.9393 I-6.3205 J-5.53
G2 X339.1333 Y203.0524 I1.0011 J1.5931
G3 X341.5448 Y215.112 I-9.0457 J8.0797
G2 X339.6292 Y228.7311 I38.1144 J12.3051
G3 X339.6296 Y228.7809 I-0.9995 J0.0328
G2 X341.4478 Y244.3694 I59.1323 J1.0032
G3 X341.4482 Y244.371 I-0.9691 J0.2466
G2 X347.1603 Y258.9837 I60.95 J-15.4024
G1 X350.4733 Y264.3807
G3 X352.584 Y269.9117 I-8.1633 J6.2834
G3 X352.5849 Y269.9264 I-0.9973 J0.073
G3 X350.6952 Y275.4694 I-7.7469 J0.4525
G3 X350.5924 Y275.5716 I-0.7548 J-0.656
G1 X346.6705 Y278.9442
G1 X346.3193 Y279.2462 Z-1.8379
G2 X345.406 Y280.565 Z-1.3 I7.9247 J6.4638
G2 X344.5736 Y282.3835 I8.838 J5.145
G2 X344.1058 Y284.3689 Z-2.0 I9.6703 J3.3265
G2 X344.6096 Y289.1393 I10.1382 J1.3411
G1 X345.6996 Y291.2652
G3 X347.5238 Y295.6773 I-4.949 J4.6293
G3 X347.1085 Y303.5924 I-16.4783 J3.104
G3 X347.1037 Y303.6082 I-0.958 J-0.2869
G3 X337.4927 Y313.9249 I-15.6942 J-4.9855
G3 X337.4789 Y313.9303 I-0.3694 J-0.9293
G3 X329.5602 Y314.9738 I-6.1629 J-16.2002
G3 X329.4432 Y314.9548 I0.1013 J-0.9949
G1 X326.5584 Y314.3094
G1 X313.496 Y313.9667
G2 X296.2032 Y315.9111 I3.6238 J110.0971
G1 X287.6584 Y317.9031
G3 X287.5041 Y317.9265 I-0.227 J-0.9739
G1 X284.322 Y318.1586
G3 X284.0811 Y318.147 I-0.0727 J-0.9974
G3 X283.7047 Y318.0716 I1.122 J-6.5756
G3 X281.7589 Y317.2841 Z-1.3 I1.4983 J-6.5002
G3 X280.2203 Y316.0064 I3.4441 J-5.7127
G3 X279.0888 Y314.2384 Z-2.0 I4.9828 J-4.435
G3 X278.8061 Y309.6802 I6.1143 J-2.667
G3 X282.3914 Y305.5169 I6.25 J1.7569
G3 X282.4235 Y305.5031 I0.4105 J0.9119
G3 X287.9683 Y305.0151 I3.5608 J8.714
G2 X296.5528 Y298.6849 I-0.8504 J-10.1391
G3 X297.4942 Y298.0594 I0.9273 J0.3744
G1 X317.3754 Y298.34
G1 X317.3895 Y296.643
G1 X298.2558 Y296.5029
G3 X297.2865 Y295.2879 I0.0073 J-1.0
G1 X297.3263 Y295.1069
G3 X294.9464 Y285.8055 I43.2219 J-16.0147
G3 X294.9867 Y285.3447 I0.9893 J-0.1456
G3 X301.0076 Y280.9722 I6.0596 J2.0123
G3 X301.5371 Y280.991 Z-1.8145 I0.0387 J6.3849
G3 X301.7765 Y281.0393 Z-1.7299 I-0.0769 J0.997
G1 X302.9617 Y281.4344 Z-1.3
G1 X304.8591 Y282.0668
G1 X306.5399 Y282.6271 Z-1.9201
G2 X306.7582 Y282.6939 Z-2.0 I7.7152 J-24.8494
G2 X316.3903 Y283.7095 I7.4968 J-24.9162
G3 X316.3967 Y283.709 I0.0821 J0.9966
G2 X322.9259 Y282.1808 I-1.6512 J-21.7672
G2 X324.744 Y280.1315 I-2.0221 J-3.625
G3 X324.7527 Y280.1109 I0.9251 J0.3796
G2 X322.7062 Y274.7384 I-3.762 J-1.643
G3 X322.3575 Y274.4719 I0.4179 J-0.9085
G3 X319.6992 Y266.2999 I8.8222 J-7.3881
G3 X319.7315 Y266.1075 I0.9977 J0.0681
G1 X320.7702 Y262.2587
G3 X320.8539 Y262.0476 I0.9655 J0.2606
G2 X324.2933 Y253.111 I-34.1908 J-18.2892
G3 X324.2993 Y253.0878 I0.9705 J0.2412
G2 X322.2204 Y218.6824 I-51.6119 J-14.1469
G2 X321.2895 Y216.5408 Z-1.3 I-49.533 J20.2585
G2 X320.6915 Y215.2864 I-48.602 J22.4001
G3 X320.076 Y214.7964 I6.6952 J-9.0415
G3 X318.6566 Y213.3414 Z-2.0 I7.3106 J-8.5515
G3 X316.1393 Y205.9789 I8.73 J-7.0965
G3 X316.144 Y205.903 I0.9997 J0.0236
G3 X318.223 Y201.2737 I7.9683 J0.7969
G3 X318.3089 Y201.1909 I0.7354 J0.6776
G1 X321.7515 Y198.2501
G2 X321.7838 Y197.0325 I-1.3953 J-0.6462
G3 X319.2235 Y192.5136 I9.9349 J-8.6135
G3 X319.21 Y192.4686 I0.9503 J-0.3114
G3 X322.3694 Y182.9949 I8.6301 J-2.3856
G3 X322.4358 Y182.9478 I0.611 J0.7916
G2 X331.4124 Y170.6008 I-11.6073 J-17.8755
G2 X332.0513 Y163.528 I-21.3508 J-5.4937
G1 X331.0723 Y156.504
G3 X331.0735 Y156.2195 I0.9904 J-0.138
G3 X333.5159 Y151.5325 I7.9881 J1.1827
G3 X333.7276 Y151.3794 I0.6868 J0.7269
G2 X336.6915 Y148.4003 I-3.4579 J-6.4041
G2 X336.6051 Y146.9484 I-1.4198 J-0.6441
G1 X333.3061 Y144.2367
G3 X332.9421 Y143.5101 I0.635 J-0.7725
G1 X332.7825 Y140.0402
G1 X331.7706 Y138.5981
G1 X331.3031 Y138.3157
G1 X329.4586 Y137.2012 Z-1.3
G1 X329.3175 Y137.1159
G3 X329.1217 Y136.9613 I0.5171 J-0.8559
G3 X328.2112 Y135.6369 I3.2921 J-3.2384
G3 X327.8047 Y133.4391 Z-2.0 I4.2026 J-1.9139
G3 X333.8133 Y129.3222 I4.6092 J0.2838
G3 X333.8188 Y129.324 I-0.3031 J0.953
G1 X349.2026 Y134.3146
G3 X353.4438 Y138.3756 I-1.449 J5.7585
G3 X353.4829 Y138.7342 I-0.9583 J0.2859
G1 X353.2286 Y142.2205
G1 X353.3747 Y143.3461
G3 X353.9542 Y148.8603 I-3.4261 J3.1476
G3 X353.8967 Y148.947 I-0.861 J-0.5087
G3 X349.4259 Y152.3793 I-8.2404 J-6.1057
G1 X349.3874 Y152.4417
G1 F800.0 Z-2.5
G2 F1200.0 X350.253 Y155.0914 I3.1448 J0.439
G3 X350.4648 Y155.4192 I-0.7178 J0.6962
G3 Y161.1872 I-7.2765 J2.884
G3 X350.3557 Y161.3903 I-0.9296 J-0.3685
G1 X346.0684 Y167.5449
G2 X342.6555 Y177.6157 I24.2484 J13.8313
G3 X342.6549 Y177.6197 I-0.9909 J-0.1347
G2 X342.729 Y186.13 I28.606 J4.0066
G3 X344.1207 Y193.3694 I-30.5158 J9.6201
G3 X344.2003 Y194.9849 Z-1.5295 I-31.9076 J2.3808
G3 X344.181 Y195.2058 Z-1.3976 I-0.9997 J0.0239
G3 X344.1164 Y195.4996 Z-1.3 I-8.2336 J-1.6546
G3 X343.4241 Y197.376 I-8.169 J-1.9484
G3 X342.2679 Y199.0812 Z-2.5 I-7.4767 J-3.8248
G3 X339.9405 Y200.9393 I-6.3205 J-5.53
G2 X339.1333 Y203.0524 I1.0011 J1.5931
G3 X341.5448 Y215.112 I-9.0457 J8.0797
G2 X339.6292 Y228.7311 I38.1144 J12.3051
G3 X339.6296 Y228.7809 I-0.9995 J0.0328
G2 X341.4478 Y244.3694 I59.1323 J1.0032
G3 X341.4482 Y244.371 I-0.9691 J0.2466
G2 X347.1603 Y258.9837 I60.95 J-15.4024
G1 X350.4733 Y264.3807
G3 X352.584 Y269.9117 I-8.1633 J6.2834
G3 X352.5849 Y269.9264 I-0.9973 J0.073
G3 X350.6952 Y275.4694 I-7.7469 J0.4525
G3 X350.5924 Y275.5716 I-0.7548 J-0.656
G1 X346.6705 Y278.9442
G1 X346.3193 Y279.2462 Z-2.2221
G2 X345.406 Y280.565 Z-1.3 I7.9247 J6.4638
G2 X344.5736 Y282.3835 I8.838 J5.145
G2 X344.1058 Y284.3689 Z-2.5 I9.6703 J3.3265
G2 X344.6096 Y289.1393 I10.1382 J1.3411
G1 X345.6996 Y291.2652
G3 X347.5238 Y295.6773 I-4.949 J4.6293
G3 X347.1085 Y303.5924 I-16.4783 J3.104
G3 X347.1037 Y303.6082 I-0.958 J-0.2869
G3 X337.4927 Y313.9249 I-15.6942 J-4.9855
G3 X337.4789 Y313.9303 I-0.3694 J-0.9293
G3 X329.5602 Y314.9738 I-6.1629 J-16.2002
G3 X329.4432 Y314.9548 I0.1013 J-0.9949
G1 X326.5584 Y314.3094
G1 X313.496 Y313.9667
G2 X296.2032 Y315.9111 I3.6238 J110.0971
G1 X287.6584 Y317.9031
G3 X287.5041 Y317.9265 I-0.227 J-0.9739
G1 X284.322 Y318.1586
G3 X284.0811 Y318.147 I-0.0727 J-0.9974
G3 X283.7047 Y318.0716 I1.122 J-6.5756
G3 X281.7589 Y317.2841 Z-1.3 I1.4983 J-6.5002
G3 X280.2203 Y316.0064 I3.4441 J-5.7127
G3 X279.0888 Y314.2384 Z-2.5 I4.9828 J-4.435
G3 X278.8061 Y309.6802 I6.1143 J-2.667
G3 X282.3914 Y305.5169 I6.25 J1.7569
G3 X282.4235 Y305.5031 I0.4105 J0.9119
G3 X287.9683 Y305.0151 I3.5608 J8.714
G2 X296.5528 Y298.6849 I-0.8504 J-10.1391
G3 X297.4942 Y298.0594 I0.9273 J0.3744
G1 X317.3754 Y298.34
G1 X317.3895 Y296.643
G1 X298.2558 Y296.5029
G3 X297.2865 Y295.2879 I0.0073 J-1.0
G1 X297.3263 Y295.1069
G3 X294.9464 Y285.8055 I43.2219 J-16.0147
G3 X294.9867 Y285.3447 I0.9893 J-0.1456
G3 X301.0076 Y280.9722 I6.0596 J2.0123
G3 X301.5371 Y280.991 Z-2.1821 I0.0387 J6.3849
G3 X301.7765 Y281.0393 Z-2.0369 I-0.0769 J0.997
G1 X302.9617 Y281.4344 Z-1.3
G1 X304.8591 Y282.0668
G1 X306.5399 Y282.6271 Z-2.3631
G2 X306.7582 Y282.6939 Z-2.5 I7.7152 J-24.8494
G2 X316.3903 Y283.7095 I7.4968 J-24.9162
G3 X316.3967 Y283.709 I0.0821 J0.9966
G2 X322.9259 Y282.1808 I-1.6512 J-21.7672
G2 X324.744 Y280.1315 I-2.0221 J-3.625
G3 X324.7527 Y280.1109 I0.9251 J0.3796
G2 X322.7062 Y274.7384 I-3.762 J-1.643
G3 X322.3575 Y274.4719 I0.4179 J-0.9085
G3 X319.6992 Y266.2999 I8.8222 J-7.3881
G3 X319.7315 Y266.1075 I0.9977 J0.0681
G1 X320.7702 Y262.2587
G3 X320.8539 Y262.0476 I0.9655 J0.2606
G2 X324.2933 Y253.111 I-34.1908 J-18.2892
G3 X324.2993 Y253.0878 I0.9705 J0.2412
G2 X322.2204 Y218.6824 I-51.6119 J-14.1469
G2 X321.2895 Y216.5408 Z-1.3 I-49.533 J20.2585
G2 X320.6915 Y215.2864 I-48.602 J22.4001
G3 X320.076 Y214.7964 I6.6952 J-9.0415
G3 X318.6566 Y213.3414 Z-2.5 I7.3106 J-8.5515
G3 X316.1393 Y205.9789 I8.73 J-7.0965
G3 X316.144 Y205.903 I0.9997 J0.0236
G3 X318.223 Y201.2737 I7.9683 J0.7969
G3 X318.3089 Y201.1909 I0.7354 J0.6776
G1 X321.7515 Y198.2501
G2 X321.7838 Y197.0325 I-1.3953 J-0.6462
G3 X319.2235 Y192.5136 I9.9349 J-8.6135
G3 X319.21 Y192.4686 I0.9503 J-0.3114
G3 X322.3694 Y182.9949 I8.6301 J-2.3856
G3 X322.4358 Y182.9478 I0.611 J0.7916
G2 X331.4124 Y170.6008 I-11.6073 J-17.8755
G2 X332.0513 Y163.528 I-21.3508 J-5.4937
G1 X331.0723 Y156.504
G3 X331.0735 Y156.2195 I0.9904 J-0.138
G3 X333.5159 Y151.5325 I7.9881 J1.1827
G3 X333.7276 Y151.3794 I0.6868 J0.7269
G2 X336.6915 Y148.4003 I-3.4579 J-6.4041
G2 X336.6051 Y146.9484 I-1.4198 J-0.6441
G1 X333.3061 Y144.2367
G3 X332.9421 Y143.5101 I0.635 J-0.7725
G1 X332.7825 Y140.0402
G1 X331.7706 Y138.5981
G1 X331.3031 Y138.3157
G1 X329.4586 Y137.2012 Z-1.3
G1 X329.3175 Y137.1159
G3 X329.1217 Y136.9613 I0.5171 J-0.8559
G3 X328.2112 Y135.6369 I3.2921 J-3.2384
G3 X327.8047 Y133.4391 Z-2.5 I4.2026 J-1.9139
G3 X333.8133 Y129.3222 I4.6092 J0.2838
G3 X333.8188 Y129.324 I-0.3031 J0.953
G1 X349.2026 Y134.3146
G3 X353.4438 Y138.3756 I-1.449 J5.7585
G3 X353.4829 Y138.7342 I-0.9583 J0.2859
G1 X353.2286 Y142.2205
G1 X353.3747 Y143.3461
G3 X353.9542 Y148.8603 I-3.4261 J3.1476
G3 X353.8967 Y148.947 I-0.861 J-0.5087
G3 X349.4259 Y152.3793 I-8.2404 J-6.1057
G1 X349.3874 Y152.4417
G1 F800.0 Z-3.0
G2 F1200.0 X350.253 Y155.0914 I3.1448 J0.439
G3 X350.4648 Y155.4192 I-0.7178 J0.6962
G3 Y161.1872 I-7.2765 J2.884
G3 X350.3557 Y161.3903 I-0.9296 J-0.3685
G1 X346.0684 Y167.5449
G2 X342.6555 Y177.6157 I24.2484 J13.8313
G3 X342.6549 Y177.6197 I-0.9909 J-0.1347
G2 X342.729 Y186.13 I28.606 J4.0066
G3 X344.1207 Y193.3694 I-30.5158 J9.6201
G3 X344.2003 Y194.9849 Z-1.6252 I-31.9076 J2.3808
G3 X344.181 Y195.2058 Z-1.4382 I-0.9997 J0.0239
G3 X344.1164 Y195.4996 Z-1.3 I-8.2336 J-1.6546
G3 X343.4241 Y197.376 I-8.169 J-1.9484
G3 X342.2679 Y199.0812 Z-3.0 I-7.4767 J-3.8248
G3 X339.9405 Y200.9393 I-6.3205 J-5.53
G2 X339.1333 Y203.0524 I1.0011 J1.5931
G3 X341.5448 Y215.112 I-9.0457 J8.0797
G2 X339.6292 Y228.7311 I38.1144 J12.3051
G3 X339.6296 Y228.7809 I-0.9995 J0.0328
G2 X341.4478 Y244.3694 I59.1323 J1.0032
G3 X341.4482 Y244.371 I-0.9691 J0.2466
G2 X347.1603 Y258.9837 I60.95 J-15.4024
G1 X350.4733 Y264.3807
G3 X352.584 Y269.9117 I-8.1633 J6.2834
G3 X352.5849 Y269.9264 I-0.9973 J0.073
G3 X350.6952 Y275.4694 I-7.7469 J0.4525
G3 X350.5924 Y275.5716 I-0.7548 J-0.656
G1 X346.6705 Y278.9442
G1 X346.3193 Y279.2462 Z-2.6063
G2 X345.406 Y280.565 Z-1.3 I7.9247 J6.4638
G2 X344.5736 Y282.3835 I8.838 J5.145
G2 X344.1058 Y284.3689 Z-3.0 I9.6703 J3.3265
G2 X344.6096 Y289.1393 I10.1382 J1.3411
G1 X345.6996 Y291.2652
G3 X347.5238 Y295.6773 I-4.949 J4.6293
G3 X347.1085 Y303.5924 I-16.4783 J3.104
G3 X347.1037 Y303.6082 I-0.958 J-0.2869
G3 X337.4927 Y313.9249 I-15.6942 J-4.9855
G3 X337.4789 Y313.9303 I-0.3694 J-0.9293
G3 X329.5602 Y314.9738 I-6.1629 J-16.2002
G3 X329.4432 Y314.9548 I0.1013 J-0.9949
G1 X326.5584 Y314.3094
G1 X313.496 Y313.9667
G2 X296.2032 Y315.9111 I3.6238 J110.0971
G1 X287.6584 Y317.9031
G3 X287.5041 Y317.9265 I-0.227 J-0.9739
G1 X284.322 Y318.1586
G3 X284.0811 Y318.147 I-0.0727 J-0.9974
G3 X283.7047 Y318.0716 I1.122 J-6.5756
G3 X281.7589 Y317.2841 Z-1.3 I1.4983 J-6.5002
G3 X280.2203 Y316.0064 I3.4441 J-5.7127
G3 X279.0888 Y314.2384 Z-3.0 I4.9828 J-4.435
G3 X278.8061 Y309.6802 I6.1143 J-2.667
G3 X282.3914 Y305.5169 I6.25 J1.7569
G3 X282.4235 Y305.5031 I0.4105 J0.9119
G3 X287.9683 Y305.0151 I3.5608 J8.714
G2 X296.5528 Y298.6849 I-0.8504 J-10.1391
G3 X297.4942 Y298.0594 I0.9273 J0.3744
G1 X317.3754 Y298.34
G1 X317.3895 Y296.643
G1 X298.2558 Y296.5029
G3 X297.2865 Y295.2879 I0.0073 J-1.0
G1 X297.3263 Y295.1069
G3 X294.9464 Y285.8055 I43.2219 J-16.0147
G3 X294.9867 Y285.3447 I0.9893 J-0.1456
G3 X301.0076 Y280.9722 I6.0596 J2.0123
G3 X301.5371 Y280.991 Z-2.5496 I0.0387 J6.3849
G3 X301.7765 Y281.0393 Z-2.3439 I-0.0769 J0.997
G1 X302.9617 Y281.4344 Z-1.3
G1 X304.8591 Y282.0668
G1 X306.5399 Y282.6271 Z-2.806
G2 X306.7582 Y282.6939 Z-3.0 I7.7152 J-24.8494
G2 X316.3903 Y283.7095 I7.4968 J-24.9162
G3 X316.3967 Y283.709 I0.0821 J0.9966
G2 X322.9259 Y282.1808 I-1.6512 J-21.7672
G2 X324.744 Y280.1315 I-2.0221 J-3.625
G3 X324.7527 Y280.1109 I0.9251 J0.3796
G2 X322.7062 Y274.7384 I-3.762 J-1.643
G3 X322.3575 Y274.4719 I0.4179 J-0.9085
G3 X319.6992 Y266.2999 I8.8222 J-7.3881
G3 X319.7315 Y266.1075 I0.9977 J0.0681
G1 X320.7702 Y262.2587
G3 X320.8539 Y262.0476 I0.9655 J0.2606
G2 X324.2933 Y253.111 I-34.1908 J-18.2892
G3 X324.2993 Y253.0878 I0.9705 J0.2412
G2 X322.2204 Y218.6824 I-51.6119 J-14.1469
G2 X321.2895 Y216.5408 Z-1.3 I-49.533 J20.2585
G2 X320.6915 Y215.2864 I-48.602 J22.4001
G3 X320.076 Y214.7964 I6.6952 J-9.0415
G3 X318.6566 Y213.3414 Z-3.0 I7.3106 J-8.5515
G3 X316.1393 Y205.9789 I8.73 J-7.0965
G3 X316.144 Y205.903 I0.9997 J0.0236
G3 X318.223 Y201.2737 I7.9683 J0.7969
G3 X318.3089 Y201.1909 I0.7354 J0.6776
G1 X321.7515 Y198.2501
G2 X321.7838 Y197.0325 I-1.3953 J-0.6462
G3 X319.2235 Y192.5136 I9.9349 J-8.6135
G3 X319.21 Y192.4686 I0.9503 J-0.3114
G3 X322.3694 Y182.9949 I8.6301 J-2.3856
G3 X322.4358 Y182.9478 I0.611 J0.7916
G2 X331.4124 Y170.6008 I-11.6073 J-17.8755
G2 X332.0513 Y163.528 I-21.3508 J-5.4937
G1 X331.0723 Y156.504
G3 X331.0735 Y156.2195 I0.9904 J-0.138
G3 X333.5159 Y151.5325 I7.9881 J1.1827
G3 X333.7276 Y151.3794 I0.6868 J0.7269
G2 X336.6915 Y148.4003 I-3.4579 J-6.4041
G2 X336.6051 Y146.9484 I-1.4198 J-0.6441
G1 X333.3061 Y144.2367
G3 X332.9421 Y143.5101 I0.635 J-0.7725
G1 X332.7825 Y140.0402
G1 X331.7706 Y138.5981
G1 X331.3031 Y138.3157
G1 X329.4586 Y137.2012 Z-1.3
G1 X329.3175 Y137.1159
G3 X329.1217 Y136.9613 I0.5171 J-0.8559
G3 X328.2112 Y135.6369 I3.2921 J-3.2384
G3 X327.8047 Y133.4391 Z-3.0 I4.2026 J-1.9139
G3 X333.8133 Y129.3222 I4.6092 J0.2838
G3 X333.8188 Y129.324 I-0.3031 J0.953
G1 X349.2026 Y134.3146
G3 X353.4438 Y138.3756 I-1.449 J5.7585
G3 X353.4829 Y138.7342 I-0.9583 J0.2859
G1 X353.2286 Y142.2205
G1 X353.3747 Y143.3461
G3 X353.9542 Y148.8603 I-3.4261 J3.1476
G3 X353.8967 Y148.947 I-0.861 J-0.5087
G3 X349.4259 Y152.3793 I-8.2404 J-6.1057
G1 X349.3874 Y152.4417
G1 F800.0 Z-3.5
G2 F1200.0 X350.253 Y155.0914 I3.1448 J0.439
G3 X350.4648 Y155.4192 I-0.7178 J0.6962
G3 Y161.1872 I-7.2765 J2.884
G3 X350.3557 Y161.3903 I-0.9296 J-0.3685
G1 X346.0684 Y167.5449
G2 X342.6555 Y177.6157 I24.2484 J13.8313
G3 X342.6549 Y177.6197 I-0.9909 J-0.1347
G2 X342.729 Y186.13 I28.606 J4.0066
G3 X344.1207 Y193.3694 I-30.5158 J9.6201
G3 X344.2003 Y194.9849 Z-1.7208 I-31.9076 J2.3808
G3 X344.181 Y195.2058 Z-1.4789 I-0.9997 J0.0239
G3 X344.1164 Y195.4996 Z-1.3 I-8.2336 J-1.6546
G3 X343.4241 Y197.376 I-8.169 J-1.9484
G3 X342.2679 Y199.0812 Z-3.5 I-7.4767 J-3.8248
G3 X339.9405 Y200.9393 I-6.3205 J-5.53
G2 X339.1333 Y203.0524 I1.0011 J1.5931
G3 X341.5448 Y215.112 I-9.0457 J8.0797
G2 X339.6292 Y228.7311 I38.1144 J12.3051
G3 X339.6296 Y228.7809 I-0.9995 J0.0328
G2 X341.4478 Y244.3694 I59.1323 J1.0032
G3 X341.4482 Y244.371 I-0.9691 J0.2466
G2 X347.1603 Y258.9837 I60.95 J-15.4024
G1 X350.4733 Y264.3807
G3 X352.584 Y269.9117 I-8.1633 J6.2834
G3 X352.5849 Y269.9264 I-0.9973 J0.073
G3 X350.6952 Y275.4694 I-7.7469 J0.4525
G3 X350.5924 Y275.5716 I-0.7548 J-0.656
G1 X346.6705 Y278.9442
G1 X346.3193 Y279.2462 Z-2.9905
G2 X345.406 Y280.565 Z-1.3 I7.9247 J6.4638
G2 X344.5736 Y282.3835 I8.838 J5.145
G2 X344.1058 Y284.3689 Z-3.5 I9.6703 J3.3265
G2 X344.6096 Y289.1393 I10.1382 J1.3411
G1 X345.6996 Y291.2652
G3 X347.5238 Y295.6773 I-4.949 J4.6293
G3 X347.1085 Y303.5924 I-16.4783 J3.104
G3 X347.1037 Y303.6082 I-0.958 J-0.2869
G3 X337.4927 Y313.9249 I-15.6942 J-4.9855
G3 X337.4789 Y313.9303 I-0.3694 J-0.9293
G3 X329.5602 Y314.9738 I-6.1629 J-16.2002
G3 X329.4432 Y314.9548 I0.1013 J-0.9949
G1 X326.5584 Y314.3094
G1 X313.496 Y313.9667
G2 X296.2032 Y315.9111 I3.6238 J110.0971
G1 X287.6584 Y317.9031
G3 X287.5041 Y317.9265 I-0.227 J-0.9739
G1 X284.322 Y318.1586
G3 X284.0811 Y318.147 I-0.0727 J-0.9974
G3 X283.7047 Y318.0716 I1.122 J-6.5756
G3 X281.7589 Y317.2841 Z-1.3 I1.4983 J-6.5002
G3 X280.2203 Y316.0064 I3.4441 J-5.7127
G3 X279.0888 Y314.2384 Z-3.5 I4.9828 J-4.435
G3 X278.8061 Y309.6802 I6.1143 J-2.667
G3 X282.3914 Y305.5169 I6.25 J1.7569
G3 X282.4235 Y305.5031 I0.4105 J0.9119
G3 X287.9683 Y305.0151 I3.5608 J8.714
G2 X296.5528 Y298.6849 I-0.8504 J-10.1391
G3 X297.4942 Y298.0594 I0.9273 J0.3744
G1 X317.3754 Y298.34
G1 X317.3895 Y296.643
G1 X298.2558 Y296.5029
G3 X297.2865 Y295.2879 I0.0073 J-1.0
G1 X297.3263 Y295.1069
G3 X294.9464 Y285.8055 I43.2219 J-16.0147
G3 X294.9867 Y285.3447 I0.9893 J-0.1456
G3 X301.0076 Y280.9722 I6.0596 J2.0123
G3 X301.5371 Y280.991 Z-2.9171 I0.0387 J6.3849
G3 X301.7765 Y281.0393 Z-2.651 I-0.0769 J0.997
G1 X302.9617 Y281.4344 Z-1.3
G1 X304.8591 Y282.0668
G1 X306.5399 Y282.6271 Z-3.249
G2 X306.7582 Y282.6939 Z-3.5 I7.7152 J-24.8494
G2 X316.3903 Y283.7095 I7.4968 J-24.9162
G3 X316.3967 Y283.709 I0.0821 J0.9966
G2 X322.9259 Y282.1808 I-1.6512 J-21.7672
G2 X324.744 Y280.1315 I-2.0221 J-3.625
G3 X324.7527 Y280.1109 I0.9251 J0.3796
G2 X322.7062 Y274.7384 I-3.762 J-1.643
G3 X322.3575 Y274.4719 I0.4179 J-0.9085
G3 X319.6992 Y266.2999 I8.8222 J-7.3881
G3 X319.7315 Y266.1075 I0.9977 J0.0681
G1 X320.7702 Y262.2587
G3 X320.8539 Y262.0476 I0.9655 J0.2606
G2 X324.2933 Y253.111 I-34.1908 J-18.2892
G3 X324.2993 Y253.0878 I0.9705 J0.2412
G2 X322.2204 Y218.6824 I-51.6119 J-14.1469
G2 X321.2895 Y216.5408 Z-1.3 I-49.533 J20.2585
G2 X320.6915 Y215.2864 I-48.602 J22.4001
G3 X320.076 Y214.7964 I6.6952 J-9.0415
G3 X318.6566 Y213.3414 Z-3.5 I7.3106 J-8.5515
G3 X316.1393 Y205.9789 I8.73 J-7.0965
G3 X316.144 Y205.903 I0.9997 J0.0236
G3 X318.223 Y201.2737 I7.9683 J0.7969
G3 X318.3089 Y201.1909 I0.7354 J0.6776
G1 X321.7515 Y198.2501
G2 X321.7838 Y197.0325 I-1.3953 J-0.6462
G3 X319.2235 Y192.5136 I9.9349 J-8.6135
G3 X319.21 Y192.4686 I0.9503 J-0.3114
G3 X322.3694 Y182.9949 I8.6301 J-2.3856
G3 X322.4358 Y182.9478 I0.611 J0.7916
G2 X331.4124 Y170.6008 I-11.6073 J-17.8755
G2 X332.0513 Y163.528 I-21.3508 J-5.4937
G1 X331.0723 Y156.504
G3 X331.0735 Y156.2195 I0.9904 J-0.138
G3 X333.5159 Y151.5325 I7.9881 J1.1827
G3 X333.7276 Y151.3794 I0.6868 J0.7269
G2 X336.6915 Y148.4003 I-3.4579 J-6.4041
G2 X336.6051 Y146.9484 I-1.4198 J-0.6441
G1 X333.3061 Y144.2367
G3 X332.9421 Y143.5101 I0.635 J-0.7725
G1 X332.7825 Y140.0402
G1 X331.7706 Y138.5981
G1 X331.3031 Y138.3157
G1 X329.4586 Y137.2012 Z-1.3
G1 X329.3175 Y137.1159
G3 X329.1217 Y136.9613 I0.5171 J-0.8559
G3 X328.2112 Y135.6369 I3.2921 J-3.2384
G3 X327.8047 Y133.4391 Z-3.5 I4.2026 J-1.9139
G3 X333.8133 Y129.3222 I4.6092 J0.2838
G3 X333.8188 Y129.324 I-0.3031 J0.953
G1 X349.2026 Y134.3146
G3 X353.4438 Y138.3756 I-1.449 J5.7585
G3 X353.4829 Y138.7342 I-0.9583 J0.2859
G1 X353.2286 Y142.2205
G1 X353.3747 Y143.3461
G3 X353.9542 Y148.8603 I-3.4261 J3.1476
G3 X353.8967 Y148.947 I-0.861 J-0.5087
G3 X349.4259 Y152.3793 I-8.2404 J-6.1057
G1 X349.3874 Y152.4417
G1 F800.0 Z-4.0
G2 F1200.0 X350.253 Y155.0914 I3.1448 J0.439
G3 X350.4648 Y155.4192 I-0.7178 J0.6962
G3 Y161.1872 I-7.2765 J2.884
G3 X350.3557 Y161.3903 I-0.9296 J-0.3685
G1 X346.0684 Y167.5449
G2 X342.6555 Y177.6157 I24.2484 J13.8313
G3 X342.6549 Y177.6197 I-0.9909 J-0.1347
G2 X342.729 Y186.13 I28.606 J4.0066
G3 X344.1207 Y193.3694 I-30.5158 J9.6201
G3 X344.2003 Y194.9849 Z-1.8165 I-31.9076 J2.3808
G3 X344.181 Y195.2058 Z-1.5195 I-0.9997 J0.0239
G3 X344.1164 Y195.4996 Z-1.3 I-8.2336 J-1.6546
G3 X343.4241 Y197.376 I-8.169 J-1.9484
G3 X342.2679 Y199.0812 Z-4.0 I-7.4767 J-3.8248
G3 X339.9405 Y200.9393 I-6.3205 J-5.53
G2 X339.1333 Y203.0524 I1.0011 J1.5931
G3 X341.5448 Y215.112 I-9.0457 J8.0797
G2 X339.6292 Y228.7311 I38.1144 J12.3051
G3 X339.6296 Y228.7809 I-0.9995 J0.0328
G2 X341.4478 Y244.3694 I59.1323 J1.0032
G3 X341.4482 Y244.371 I-0.9691 J0.2466
G2 X347.1603 Y258.9837 I60.95 J-15.4024
G1 X350.4733 Y264.3807
G3 X352.584 Y269.9117 I-8.1633 J6.2834
G3 X352.5849 Y269.9264 I-0.9973 J0.073
G3 X350.6952 Y275.4694 I-7.7469 J0.4525
G3 X350.5924 Y275.5716 I-0.7548 J-0.656
G1 X346.6705 Y278.9442
G1 X346.3193 Y279.2462 Z-3.3747
G2 X345.406 Y280.565 Z-1.3 I7.9247 J6.4638
G2 X344.5736 Y282.3835 I8.838 J5.145
G2 X344.1058 Y284.3689 Z-4.0 I9.6703 J3.3265
G2 X344.6096 Y289.1393 I10.1382 J1.3411
G1 X345.6996 Y291.2652
G3 X347.5238 Y295.6773 I-4.949 J4.6293
G3 X347.1085 Y303.5924 I-16.4783 J3.104
G3 X347.1037 Y303.6082 I-0.958 J-0.2869
G3 X337.4927 Y313.9249 I-15.6942 J-4.9855
G3 X337.4789 Y313.9303 I-0.3694 J-0.9293
G3 X329.5602 Y314.9738 I-6.1629 J-16.2002
G3 X329.4432 Y314.9548 I0.1013 J-0.9949
G1 X326.5584 Y314.3094
G1 X313.496 Y313.9667
G2 X296.2032 Y315.9111 I3.6238 J110.0971
G1 X287.6584 Y317.9031
G3 X287.5041 Y317.9265 I-0.227 J-0.9739
G1 X284.322 Y318.1586
G3 X284.0811 Y318.147 I-0.0727 J-0.9974
G3 X283.7047 Y318.0716 I1.122 J-6.5756
G3 X281.7589 Y317.2841 Z-1.3 I1.4983 J-6.5002
G3 X280.2203 Y316.0064 I3.4441 J-5.7127
G3 X279.0888 Y314.2384 Z-4.0 I4.9828 J-4.435
G3 X278.8061 Y309.6802 I6.1143 J-2.667
G3 X282.3914 Y305.5169 I6.25 J1.7569
G3 X282.4235 Y305.5031 I0.4105 J0.9119
G3 X287.9683 Y305.0151 I3.5608 J8.714
G2 X296.5528 Y298.6849 I-0.8504 J-10.1391
G3 X297.4942 Y298.0594 I0.9273 J0.3744
G1 X317.3754 Y298.34
G1 X317.3895 Y296.643
G1 X298.2558 Y296.5029
G3 X297.2865 Y295.2879 I0.0073 J-1.0
G1 X297.3263 Y295.1069
G3 X294.9464 Y285.8055 I43.2219 J-16.0147
G3 X294.9867 Y285.3447 I0.9893 J-0.1456
G3 X301.0076 Y280.9722 I6.0596 J2.0123
